(1001)
(T1  D=3.175 CR=0. - ZMIN=-24.899 - FLAT END MILL)
G0 G90 G94 G17
G21
G53 G0 Z0.

(ADAPTIVE2)
M5
M9
T1
S16500 M3
G4 P4.
G55
G0 X6.228 Y-0.793
Z7.
Z5.
Z2.5
G3 X3.662 Y0.793 Z2.335 I-1.283 J0.793 F1016.
X6.228 Y-0.793 Z2.169 I1.283 J-0.793
X3.662 Y0.793 Z2.004 I-1.283 J0.793
X6.228 Y-0.793 Z1.838 I1.283 J-0.793
X3.662 Y0.793 Z1.673 I-1.283 J0.793
X6.228 Y-0.793 Z1.507 I1.283 J-0.793
X3.662 Y0.793 Z1.342 I-1.283 J0.793
X6.228 Y-0.793 Z1.176 I1.283 J-0.793
X3.662 Y0.793 Z1.011 I-1.283 J0.793
X6.228 Y-0.793 Z0.845 I1.283 J-0.793
X3.662 Y0.793 Z0.68 I-1.283 J0.793
X6.228 Y-0.793 Z0.515 I1.283 J-0.793
X3.662 Y0.793 Z0.349 I-1.283 J0.793
X6.228 Y-0.793 Z0.184 I1.283 J-0.793
X3.662 Y0.793 Z0.018 I-1.283 J0.793
X6.228 Y-0.793 Z-0.147 I1.283 J-0.793
X3.662 Y0.793 Z-0.313 I-1.283 J0.793
X6.228 Y-0.793 Z-0.478 I1.283 J-0.793
X3.662 Y0.793 Z-0.644 I-1.283 J0.793
X6.228 Y-0.793 Z-0.809 I1.283 J-0.793
X3.662 Y0.793 Z-0.974 I-1.283 J0.793
X6.228 Y-0.793 Z-1.14 I1.283 J-0.793
X3.662 Y0.793 Z-1.305 I-1.283 J0.793
X6.228 Y-0.793 Z-1.471 I1.283 J-0.793
X6.453 Y0. Z-1.5 I-1.283 J0.793
X3.437 I-1.508 J0.
X6.453 I1.508 J0.
G1 X6.473 Y0.738
X6.494 Y0.827
X6.51 Y0.976
X6.497 Y1.126
X6.462 Y1.272
X6.407 Y1.411
X6.335 Y1.543
X6.25 Y1.666
X6.151 Y1.78
X6.043 Y1.883
X5.925 Y1.976
X5.799 Y2.058
X5.667 Y2.129
X5.529 Y2.189
X5.382 Y2.24
X5.228 Y2.279
X5.068 Y2.306
X4.903 Y2.321
X4.734 Y2.323
X4.563 Y2.311
X4.391 Y2.284
X4.22 Y2.244
X4.051 Y2.189
X3.884 Y2.121
X3.723 Y2.038
X3.567 Y1.942
X3.418 Y1.833
X3.278 Y1.711
X3.147 Y1.578
X3.027 Y1.434
X2.918 Y1.281
X2.822 Y1.118
X2.738 Y0.948
X2.669 Y0.771
X2.613 Y0.589
X2.573 Y0.402
X2.547 Y0.212
X2.537 Y0.021
X2.542 Y-0.171
X2.563 Y-0.362
X2.599 Y-0.551
X2.649 Y-0.737
X2.715 Y-0.918
X2.795 Y-1.094
X2.889 Y-1.262
X2.997 Y-1.423
X3.117 Y-1.575
X3.249 Y-1.716
X3.391 Y-1.847
X3.544 Y-1.965
X3.706 Y-2.072
X3.876 Y-2.164
X4.053 Y-2.243
X4.236 Y-2.308
X4.423 Y-2.357
X4.614 Y-2.392
X4.807 Y-2.41
X5. Y-2.414
X5.194 Y-2.402
X5.386 Y-2.374
X5.575 Y-2.331
X5.76 Y-2.273
X5.94 Y-2.2
X6.113 Y-2.114
X6.279 Y-2.013
X6.436 Y-1.9
X6.584 Y-1.774
X6.721 Y-1.637
X6.846 Y-1.489
X6.96 Y-1.332
X7.064 Y-1.159
X7.175 Y-0.937
X7.322 Y-0.572
X7.43 Y-0.229
X7.493 Y0.054
X7.53 Y0.309
X7.545 Y0.546
X7.541 Y0.77
X7.52 Y0.983
X7.482 Y1.19
X7.428 Y1.392
X7.359 Y1.589
X7.274 Y1.779
X7.174 Y1.962
X7.059 Y2.137
X6.929 Y2.304
X6.785 Y2.461
X6.627 Y2.608
X6.455 Y2.744
X6.271 Y2.867
X6.074 Y2.976
X5.867 Y3.071
X5.649 Y3.15
X5.422 Y3.212
X5.188 Y3.256
X4.948 Y3.281
X4.704 Y3.288
X4.458 Y3.274
X4.211 Y3.241
X3.965 Y3.187
X3.723 Y3.113
X3.485 Y3.019
X3.254 Y2.906
X3.031 Y2.773
X2.818 Y2.622
X2.617 Y2.454
X2.43 Y2.269
X2.256 Y2.069
X2.099 Y1.854
X1.959 Y1.627
X1.837 Y1.388
X1.735 Y1.14
X1.652 Y0.883
X1.59 Y0.62
X1.55 Y0.353
X1.531 Y0.082
X1.534 Y-0.19
X1.558 Y-0.461
X1.605 Y-0.73
X1.672 Y-0.994
X1.761 Y-1.253
X1.871 Y-1.503
X2. Y-1.744
X2.149 Y-1.975
X2.315 Y-2.192
X2.499 Y-2.396
X2.698 Y-2.585
X2.912 Y-2.756
X3.139 Y-2.911
X3.378 Y-3.046
X3.627 Y-3.162
X3.885 Y-3.258
X4.15 Y-3.333
X4.419 Y-3.386
X4.693 Y-3.417
X4.967 Y-3.427
X5.242 Y-3.414
X5.515 Y-3.379
X5.784 Y-3.323
X6.048 Y-3.245
X6.305 Y-3.146
X6.553 Y-3.026
X6.791 Y-2.888
X7.016 Y-2.73
X7.23 Y-2.554
X7.436 Y-2.355
X7.651 Y-2.111
X7.852 Y-1.84
X8.039 Y-1.543
X8.204 Y-1.227
X8.341 Y-0.902
X8.449 Y-0.575
X8.528 Y-0.252
X8.579 Y0.068
X8.604 Y0.385
X8.603 Y0.697
X8.578 Y1.005
X8.528 Y1.306
X8.455 Y1.6
X8.36 Y1.886
X8.242 Y2.162
X8.102 Y2.427
X7.942 Y2.681
X7.761 Y2.922
X7.56 Y3.148
X7.34 Y3.359
X7.103 Y3.553
X6.849 Y3.728
X6.579 Y3.884
X6.296 Y4.019
X6. Y4.132
X5.693 Y4.221
X5.377 Y4.286
X5.054 Y4.326
X4.727 Y4.34
X4.398 Y4.327
X4.068 Y4.288
X3.74 Y4.222
X3.416 Y4.129
X3.099 Y4.01
X2.791 Y3.865
X2.493 Y3.695
X2.209 Y3.5
X1.94 Y3.282
X1.688 Y3.042
X1.456 Y2.782
X1.244 Y2.503
X1.055 Y2.206
X0.889 Y1.895
X0.749 Y1.57
X0.635 Y1.234
X0.548 Y0.889
X0.488 Y0.538
X0.457 Y0.182
X0.455 Y-0.176
X0.482 Y-0.533
X0.537 Y-0.887
X0.62 Y-1.236
X0.732 Y-1.578
X0.87 Y-1.91
X1.035 Y-2.23
X1.226 Y-2.536
X1.44 Y-2.826
X1.677 Y-3.098
X1.935 Y-3.35
X2.213 Y-3.58
X2.508 Y-3.788
X2.819 Y-3.972
X3.144 Y-4.129
X3.481 Y-4.261
X3.827 Y-4.365
X4.181 Y-4.44
X4.539 Y-4.488
X4.9 Y-4.506
X5.262 Y-4.495
X5.621 Y-4.455
X5.977 Y-4.387
X6.325 Y-4.29
X6.665 Y-4.166
X6.994 Y-4.014
X7.312 Y-3.835
X7.625 Y-3.625
X7.928 Y-3.383
X8.22 Y-3.11
X8.497 Y-2.805
X8.752 Y-2.474
X8.983 Y-2.12
X9.184 Y-1.749
X9.353 Y-1.365
X9.491 Y-0.971
X9.595 Y-0.572
X9.667 Y-0.169
X9.705 Y0.235
X9.711 Y0.637
X9.684 Y1.036
X9.627 Y1.428
X9.538 Y1.812
X9.419 Y2.187
X9.271 Y2.55
X9.095 Y2.9
X8.89 Y3.235
X8.66 Y3.552
X8.404 Y3.851
X8.123 Y4.129
X7.82 Y4.385
X7.496 Y4.617
X7.152 Y4.824
X6.791 Y5.003
X6.414 Y5.154
X6.024 Y5.274
X5.623 Y5.364
X5.213 Y5.421
X4.798 Y5.445
X4.38 Y5.436
X3.962 Y5.393
X3.546 Y5.317
X3.136 Y5.206
X2.733 Y5.063
X2.342 Y4.886
X1.964 Y4.678
X1.603 Y4.44
X1.261 Y4.171
X0.94 Y3.876
X0.643 Y3.554
X0.371 Y3.208
X0.128 Y2.841
X-0.086 Y2.454
X-0.268 Y2.05
X-0.418 Y1.632
X-0.534 Y1.203
X-0.615 Y0.765
X-0.661 Y0.32
X-0.671 Y-0.127
X-0.645 Y-0.574
X-0.584 Y-1.018
X-0.486 Y-1.456
X-0.354 Y-1.886
X-0.188 Y-2.304
X0.012 Y-2.707
X0.243 Y-3.093
X0.505 Y-3.46
X0.796 Y-3.805
X1.113 Y-4.125
X1.456 Y-4.42
X1.821 Y-4.685
X2.206 Y-4.921
X2.609 Y-5.125
X3.027 Y-5.296
X3.458 Y-5.433
X3.898 Y-5.535
X4.345 Y-5.601
X4.797 Y-5.632
X5.249 Y-5.626
X5.699 Y-5.583
X6.145 Y-5.505
X6.583 Y-5.391
X7.013 Y-5.241
X7.434 Y-5.056
X7.843 Y-4.835
X8.239 Y-4.578
X8.62 Y-4.285
X8.983 Y-3.955
X9.323 Y-3.593
X9.637 Y-3.2
X9.919 Y-2.781
X10.168 Y-2.339
X10.38 Y-1.88
X10.554 Y-1.406
X10.689 Y-0.922
X10.784 Y-0.432
X10.84 Y0.062
X10.855 Y0.556
X10.831 Y1.047
X10.767 Y1.533
X10.665 Y2.01
X10.526 Y2.476
X10.35 Y2.928
X10.139 Y3.364
X9.893 Y3.783
X9.614 Y4.18
X9.304 Y4.554
X8.963 Y4.904
X8.595 Y5.225
X8.2 Y5.518
X7.782 Y5.778
X7.342 Y6.006
X6.883 Y6.198
X6.408 Y6.353
X5.92 Y6.471
X5.421 Y6.549
X4.915 Y6.587
X4.406 Y6.584
X3.896 Y6.541
X3.388 Y6.456
X2.887 Y6.33
X2.396 Y6.163
X1.918 Y5.957
X1.456 Y5.713
X1.014 Y5.431
X0.594 Y5.113
X0.2 Y4.761
X-0.166 Y4.378
X-0.501 Y3.966
X-0.802 Y3.527
X-1.068 Y3.064
X-1.296 Y2.58
X-1.485 Y2.078
X-1.634 Y1.562
X-1.741 Y1.035
X-1.805 Y0.5
X-1.826 Y-0.039
X-1.804 Y-0.579
X-1.738 Y-1.116
X-1.63 Y-1.646
X-1.479 Y-2.166
X-1.286 Y-2.673
X-1.054 Y-3.164
X-0.783 Y-3.634
X-0.474 Y-4.081
X-0.131 Y-4.503
X0.246 Y-4.895
X0.652 Y-5.256
X1.087 Y-5.584
X1.547 Y-5.875
X2.028 Y-6.129
X2.529 Y-6.344
X3.045 Y-6.517
X3.574 Y-6.649
X4.111 Y-6.738
X4.654 Y-6.783
X5.199 Y-6.785
X5.743 Y-6.743
X6.282 Y-6.657
X6.815 Y-6.528
X7.339 Y-6.355
X7.851 Y-6.14
X8.349 Y-5.881
X8.831 Y-5.579
X9.292 Y-5.236
X9.73 Y-4.852
X10.139 Y-4.431
X10.515 Y-3.975
X10.856 Y-3.487
X11.156 Y-2.973
X11.415 Y-2.437
X11.63 Y-1.882
X11.798 Y-1.312
X11.921 Y-0.733
X11.996 Y-0.148
X12.024 Y0.44
X12.004 Y1.025
X11.938 Y1.606
X11.826 Y2.177
X11.669 Y2.737
X11.467 Y3.281
X11.223 Y3.807
X10.937 Y4.312
X10.612 Y4.793
X10.248 Y5.246
X9.849 Y5.67
X9.416 Y6.061
X8.951 Y6.417
X8.458 Y6.736
X7.939 Y7.015
X7.397 Y7.252
X6.836 Y7.446
X6.259 Y7.595
X5.669 Y7.697
X5.071 Y7.752
X4.468 Y7.759
X3.864 Y7.717
X3.263 Y7.627
X2.669 Y7.488
X2.085 Y7.301
X1.517 Y7.067
X0.968 Y6.787
X0.441 Y6.464
X-0.06 Y6.097
X-0.531 Y5.691
X-0.969 Y5.247
X-1.37 Y4.768
X-1.733 Y4.258
X-2.055 Y3.718
X-2.333 Y3.154
X-2.565 Y2.568
X-2.749 Y1.964
X-2.885 Y1.347
X-2.971 Y0.719
X-3.006 Y0.086
X-2.99 Y-0.548
X-2.924 Y-1.18
X-2.806 Y-1.805
X-2.639 Y-2.419
X-2.423 Y-3.018
X-2.159 Y-3.598
X-1.85 Y-4.156
X-1.496 Y-4.687
X-1.101 Y-5.188
X-0.667 Y-5.656
X-0.196 Y-6.088
X0.307 Y-6.481
X0.841 Y-6.832
X1.402 Y-7.14
X1.986 Y-7.401
X2.588 Y-7.615
X3.207 Y-7.78
X3.836 Y-7.894
X4.473 Y-7.958
X5.113 Y-7.971
X5.753 Y-7.932
X6.389 Y-7.841
X7.019 Y-7.699
X7.639 Y-7.507
X8.245 Y-7.263
X8.834 Y-6.969
X9.403 Y-6.626
X9.947 Y-6.235
X10.461 Y-5.798
X10.942 Y-5.319
X11.386 Y-4.799
X11.788 Y-4.243
X12.146 Y-3.655
X12.455 Y-3.039
X12.714 Y-2.4
X12.92 Y-1.743
X13.073 Y-1.073
X13.172 Y-0.395
X13.215 Y0.287
X13.204 Y0.969
X13.138 Y1.646
X13.019 Y2.315
X12.846 Y2.97
X12.621 Y3.609
X12.347 Y4.228
X12.023 Y4.822
X11.653 Y5.389
X11.237 Y5.924
X10.78 Y6.426
X10.283 Y6.89
X9.749 Y7.313
X9.181 Y7.693
X8.583 Y8.027
X7.959 Y8.314
X7.311 Y8.549
X6.644 Y8.733
X5.963 Y8.863
X5.27 Y8.938
X4.572 Y8.957
X3.872 Y8.921
X3.175 Y8.827
X2.486 Y8.678
X1.808 Y8.473
X1.147 Y8.214
X0.508 Y7.901
X-0.107 Y7.537
X-0.692 Y7.124
X-1.243 Y6.665
X-1.756 Y6.161
X-2.229 Y5.616
X-2.657 Y5.034
X-3.038 Y4.419
X-3.369 Y3.774
X-3.647 Y3.103
X-3.871 Y2.411
X-4.039 Y1.702
X-4.15 Y0.982
X-4.202 Y0.253
X-4.196 Y-0.477
X-4.131 Y-1.206
X-4.008 Y-1.928
X-3.827 Y-2.637
X-3.59 Y-3.331
X-3.298 Y-4.004
X-2.952 Y-4.651
X-2.555 Y-5.269
X-2.11 Y-5.853
X-1.619 Y-6.4
X-1.086 Y-6.906
X-0.514 Y-7.368
X0.094 Y-7.782
X0.733 Y-8.147
X1.4 Y-8.458
X2.089 Y-8.716
X2.797 Y-8.917
X3.519 Y-9.061
X4.251 Y-9.146
X4.988 Y-9.173
X5.725 Y-9.14
X6.457 Y-9.048
X7.179 Y-8.898
X7.887 Y-8.691
X8.577 Y-8.428
X9.243 Y-8.112
X9.883 Y-7.745
X10.492 Y-7.328
X11.067 Y-6.866
X11.606 Y-6.362
X12.104 Y-5.817
X12.559 Y-5.237
X12.969 Y-4.624
X13.332 Y-3.981
X13.646 Y-3.313
X13.909 Y-2.624
X14.119 Y-1.917
X14.275 Y-1.196
X14.376 Y-0.465
X14.422 Y0.272
X14.41 Y1.009
X14.342 Y1.744
X14.218 Y2.471
X14.038 Y3.187
X13.804 Y3.887
X13.517 Y4.567
X13.18 Y5.222
X12.793 Y5.851
X12.359 Y6.448
X11.881 Y7.01
X11.362 Y7.534
X10.804 Y8.017
X10.211 Y8.456
X9.587 Y8.849
X8.934 Y9.194
X8.258 Y9.489
X7.562 Y9.732
X6.849 Y9.923
X6.124 Y10.059
X5.39 Y10.139
X4.653 Y10.164
X3.916 Y10.134
X3.183 Y10.048
X2.458 Y9.909
X1.746 Y9.718
X1.049 Y9.474
X0.372 Y9.181
X-0.282 Y8.839
X-0.909 Y8.451
X-1.507 Y8.019
X-2.072 Y7.544
X-2.599 Y7.028
X-3.087 Y6.474
X-3.533 Y5.887
X-3.936 Y5.269
X-4.294 Y4.623
X-4.605 Y3.954
X-4.867 Y3.264
X-5.08 Y2.558
X-5.242 Y1.838
X-5.352 Y1.109
X-5.407 Y0.373
X-5.408 Y-0.365
X-5.357 Y-1.101
X-5.253 Y-1.831
X-5.099 Y-2.553
X-4.894 Y-3.262
X-4.639 Y-3.954
X-4.337 Y-4.627
X-3.987 Y-5.277
X-3.589 Y-5.898
X-3.148 Y-6.49
X-2.666 Y-7.048
X-2.146 Y-7.571
X-1.59 Y-8.056
X-1.001 Y-8.501
X-0.383 Y-8.904
X0.262 Y-9.262
X0.931 Y-9.573
X1.622 Y-9.833
X2.329 Y-10.043
X3.049 Y-10.203
X3.779 Y-10.311
X4.515 Y-10.368
X5.252 Y-10.374
X5.989 Y-10.328
X6.72 Y-10.23
X7.442 Y-10.079
X8.152 Y-9.876
X8.845 Y-9.624
X9.519 Y-9.324
X10.171 Y-8.978
X10.798 Y-8.589
X11.397 Y-8.158
X11.965 Y-7.687
X12.5 Y-7.18
X12.998 Y-6.635
X13.458 Y-6.058
X13.877 Y-5.451
X14.255 Y-4.817
X14.591 Y-4.16
X14.882 Y-3.482
X15.127 Y-2.786
X15.326 Y-2.076
X15.478 Y-1.354
X15.578 Y-0.623
X15.628 Y0.113
X15.627 Y0.851
X15.576 Y1.587
X15.475 Y2.318
X15.326 Y3.041
X15.129 Y3.752
X14.884 Y4.448
X14.593 Y5.126
X14.255 Y5.781
X13.872 Y6.412
X13.447 Y7.015
X12.983 Y7.589
X12.481 Y8.129
X11.944 Y8.635
X11.375 Y9.105
X10.775 Y9.535
X10.148 Y9.924
X9.496 Y10.269
X8.822 Y10.568
X8.129 Y10.821
X7.42 Y11.028
X6.7 Y11.187
X5.97 Y11.297
X5.235 Y11.359
X4.497 Y11.373
X3.76 Y11.337
X3.028 Y11.252
X2.302 Y11.117
X1.587 Y10.934
X0.886 Y10.706
X0.201 Y10.432
X-0.466 Y10.115
X-1.11 Y9.757
X-1.731 Y9.357
X-2.324 Y8.919
X-2.887 Y8.442
X-3.416 Y7.928
X-3.91 Y7.379
X-4.367 Y6.8
X-4.786 Y6.193
X-5.166 Y5.56
X-5.505 Y4.905
X-5.802 Y4.229
X-6.055 Y3.537
X-6.265 Y2.829
X-6.427 Y2.109
X-6.54 Y1.38
X-6.606 Y0.645
X-6.624 Y-0.092
X-6.596 Y-0.829
X-6.521 Y-1.563
X-6.4 Y-2.291
X-6.233 Y-3.01
X-6.023 Y-3.717
X-5.767 Y-4.409
X-5.466 Y-5.083
X-5.122 Y-5.735
X-4.736 Y-6.364
X-4.31 Y-6.967
X-3.848 Y-7.542
X-3.35 Y-8.086
X-2.819 Y-8.599
X-2.257 Y-9.077
X-1.667 Y-9.519
X-1.049 Y-9.922
X-0.405 Y-10.284
X0.26 Y-10.603
X0.944 Y-10.878
X1.645 Y-11.11
X2.359 Y-11.297
X3.083 Y-11.438
X3.814 Y-11.535
X4.55 Y-11.585
X5.288 Y-11.589
X6.025 Y-11.545
X6.757 Y-11.453
X7.481 Y-11.314
X8.196 Y-11.13
X8.897 Y-10.9
X9.583 Y-10.628
X10.25 Y-10.314
X10.898 Y-9.96
X11.522 Y-9.568
X12.121 Y-9.136
X12.692 Y-8.668
X13.232 Y-8.166
X13.74 Y-7.631
X14.214 Y-7.066
X14.653 Y-6.473
X15.056 Y-5.855
X15.422 Y-5.214
X15.749 Y-4.553
X16.036 Y-3.873
X16.282 Y-3.177
X16.484 Y-2.468
X16.642 Y-1.747
X16.755 Y-1.018
X16.823 Y-0.283
X16.846 Y0.454
X16.825 Y1.192
X16.76 Y1.927
X16.65 Y2.656
X16.497 Y3.378
X16.299 Y4.089
X16.058 Y4.786
X15.773 Y5.467
X15.447 Y6.129
X15.081 Y6.769
X14.677 Y7.387
X14.236 Y7.978
X13.761 Y8.542
X13.253 Y9.077
X12.713 Y9.581
X12.144 Y10.05
X11.546 Y10.483
X10.924 Y10.878
X10.278 Y11.235
X9.611 Y11.552
X8.927 Y11.828
X8.228 Y12.063
X7.515 Y12.255
X6.793 Y12.406
X6.063 Y12.513
X5.328 Y12.575
X4.59 Y12.592
X3.853 Y12.564
X3.119 Y12.491
X2.39 Y12.374
X1.67 Y12.215
X0.96 Y12.014
X0.263 Y11.771
X-0.419 Y11.489
X-1.083 Y11.169
X-1.727 Y10.809
X-2.349 Y10.412
X-2.946 Y9.978
X-3.516 Y9.509
X-4.056 Y9.007
X-4.566 Y8.474
X-5.045 Y7.912
X-5.489 Y7.324
X-5.9 Y6.71
X-6.274 Y6.075
X-6.612 Y5.419
X-6.91 Y4.744
X-7.168 Y4.053
X-7.386 Y3.348
X-7.561 Y2.631
X-7.694 Y1.905
X-7.785 Y1.173
X-7.833 Y0.437
X-7.838 Y-0.301
X-7.802 Y-1.038
X-7.724 Y-1.772
X-7.603 Y-2.499
X-7.44 Y-3.219
X-7.236 Y-3.928
X-6.99 Y-4.624
X-6.705 Y-5.304
X-6.38 Y-5.967
X-6.018 Y-6.609
X-5.619 Y-7.23
X-5.186 Y-7.827
X-4.719 Y-8.399
X-4.22 Y-8.943
X-3.691 Y-9.456
X-3.132 Y-9.938
X-2.547 Y-10.388
X-1.937 Y-10.802
X-1.303 Y-11.181
X-0.649 Y-11.522
X0.024 Y-11.824
X0.713 Y-12.088
X1.416 Y-12.312
X2.13 Y-12.496
X2.854 Y-12.638
X3.585 Y-12.738
X4.321 Y-12.796
X5.059 Y-12.811
X5.796 Y-12.783
X6.53 Y-12.713
X7.26 Y-12.6
X7.981 Y-12.447
X8.693 Y-12.252
X9.393 Y-12.018
X10.078 Y-11.745
X10.746 Y-11.432
X11.396 Y-11.083
X12.025 Y-10.697
X12.631 Y-10.277
X13.213 Y-9.823
X13.768 Y-9.337
X14.296 Y-8.821
X14.794 Y-8.277
X15.262 Y-7.706
X15.698 Y-7.111
X16.1 Y-6.493
X16.467 Y-5.853
X16.799 Y-5.194
X17.094 Y-4.517
X17.351 Y-3.826
X17.57 Y-3.121
X17.75 Y-2.406
X17.89 Y-1.681
X17.989 Y-0.95
X18.049 Y-0.215
X18.068 Y0.523
X18.046 Y1.26
X17.982 Y1.995
X17.878 Y2.726
X17.734 Y3.449
X17.549 Y4.164
X17.325 Y4.867
X17.062 Y5.556
X16.761 Y6.23
X16.423 Y6.886
X16.05 Y7.522
X15.643 Y8.137
X15.202 Y8.729
X14.728 Y9.294
X14.224 Y9.833
X13.691 Y10.343
X13.13 Y10.823
X12.544 Y11.271
X11.934 Y11.686
X11.302 Y12.067
X10.65 Y12.412
X9.981 Y12.722
X9.295 Y12.995
X8.595 Y13.229
X7.884 Y13.424
X7.163 Y13.58
X6.434 Y13.696
X5.7 Y13.772
X4.963 Y13.808
X4.225 Y13.803
X3.489 Y13.757
X2.756 Y13.672
X2.029 Y13.548
X1.309 Y13.385
X0.6 Y13.183
X-0.098 Y12.943
X-0.782 Y12.666
X-1.45 Y12.353
X-2.1 Y12.005
X-2.731 Y11.622
X-3.34 Y11.206
X-3.926 Y10.757
X-4.487 Y10.278
X-5.022 Y9.769
X-5.528 Y9.233
X-6.006 Y8.67
X-6.452 Y8.083
X-6.866 Y7.472
X-7.247 Y6.84
X-7.594 Y6.189
X-7.907 Y5.521
X-8.184 Y4.837
X-8.424 Y4.14
X-8.627 Y3.43
X-8.792 Y2.711
X-8.919 Y1.984
X-9.007 Y1.252
X-9.055 Y0.515
X-9.064 Y-0.222
X-9.034 Y-0.96
X-8.966 Y-1.694
X-8.859 Y-2.424
X-8.713 Y-3.148
X-8.53 Y-3.862
X-8.31 Y-4.566
X-8.053 Y-5.258
X-7.76 Y-5.935
X-7.432 Y-6.596
X-7.069 Y-7.238
X-6.672 Y-7.86
X-6.242 Y-8.46
X-5.782 Y-9.037
X-5.292 Y-9.589
X-4.774 Y-10.114
X-4.229 Y-10.611
X-3.659 Y-11.08
X-3.065 Y-11.517
X-2.449 Y-11.923
X-1.813 Y-12.296
X-1.157 Y-12.636
X-0.485 Y-12.939
X0.203 Y-13.206
X0.904 Y-13.437
X1.616 Y-13.631
X2.337 Y-13.787
X3.065 Y-13.905
X3.799 Y-13.984
X4.535 Y-14.026
X5.273 Y-14.029
X6.01 Y-13.993
X6.744 Y-13.919
X7.473 Y-13.807
X8.195 Y-13.655
X8.908 Y-13.465
X9.611 Y-13.239
X10.3 Y-12.977
X10.976 Y-12.68
X11.635 Y-12.348
X12.276 Y-11.982
X12.897 Y-11.585
X13.498 Y-11.156
X14.076 Y-10.697
X14.629 Y-10.21
X15.157 Y-9.694
X15.658 Y-9.152
X16.13 Y-8.585
X16.573 Y-7.995
X16.986 Y-7.384
X17.367 Y-6.752
X17.716 Y-6.102
X18.033 Y-5.436
X18.316 Y-4.754
X18.564 Y-4.06
X18.777 Y-3.353
X18.954 Y-2.637
X19.095 Y-1.913
X19.197 Y-1.182
X19.262 Y-0.447
X19.291 Y0.29
X19.281 Y1.028
X19.235 Y1.764
X19.151 Y2.497
X19.03 Y3.225
X18.873 Y3.946
X18.679 Y4.658
X18.45 Y5.359
X18.185 Y6.048
X17.885 Y6.722
X17.55 Y7.38
X17.183 Y8.019
X16.783 Y8.64
X16.353 Y9.239
X15.893 Y9.816
X15.404 Y10.369
X14.888 Y10.896
X14.347 Y11.397
X13.781 Y11.87
X13.192 Y12.314
X12.581 Y12.728
X11.949 Y13.11
X11.299 Y13.459
X10.632 Y13.774
X9.95 Y14.056
X9.255 Y14.304
X8.548 Y14.515
X7.832 Y14.692
X7.108 Y14.832
X6.377 Y14.936
X5.643 Y15.004
X4.905 Y15.034
X4.168 Y15.028
X3.431 Y14.984
X2.698 Y14.903
X1.969 Y14.785
X1.248 Y14.631
X0.534 Y14.442
X-0.169 Y14.219
X-0.86 Y13.96
X-1.538 Y13.669
X-2.2 Y13.345
X-2.846 Y12.989
X-3.474 Y12.601
X-4.082 Y12.183
X-4.669 Y11.735
X-5.232 Y11.258
X-5.77 Y10.754
X-6.283 Y10.224
X-6.77 Y9.669
X-7.229 Y9.092
X-7.659 Y8.492
X-8.06 Y7.873
X-8.43 Y7.234
X-8.769 Y6.579
X-9.076 Y5.908
X-9.35 Y5.223
X-9.59 Y4.525
X-9.795 Y3.817
X-9.965 Y3.099
X-10.099 Y2.373
X-10.198 Y1.642
X-10.261 Y0.907
X-10.289 Y0.17
X-10.28 Y-0.568
X-10.237 Y-1.305
X-10.157 Y-2.038
X-10.043 Y-2.767
X-9.894 Y-3.49
X-9.71 Y-4.204
X-9.491 Y-4.909
X-9.237 Y-5.602
X-8.95 Y-6.281
X-8.631 Y-6.946
X-8.279 Y-7.595
X-7.897 Y-8.226
X-7.484 Y-8.837
X-7.042 Y-9.428
X-6.573 Y-9.998
X-6.076 Y-10.544
X-5.555 Y-11.065
X-5.008 Y-11.561
X-4.438 Y-12.03
X-3.846 Y-12.469
X-3.233 Y-12.88
X-2.601 Y-13.26
X-1.951 Y-13.61
X-1.285 Y-13.927
X-0.604 Y-14.212
X0.09 Y-14.463
X0.795 Y-14.681
X1.509 Y-14.865
X2.232 Y-15.014
X2.96 Y-15.129
X3.694 Y-15.209
X4.43 Y-15.252
X5.168 Y-15.259
X5.906 Y-15.23
X6.641 Y-15.166
X7.372 Y-15.067
X8.097 Y-14.932
X8.815 Y-14.762
X9.524 Y-14.559
X10.223 Y-14.322
X10.91 Y-14.052
X11.583 Y-13.75
X12.241 Y-13.417
X12.882 Y-13.052
X13.506 Y-12.657
X14.109 Y-12.232
X14.692 Y-11.78
X15.253 Y-11.301
X15.791 Y-10.796
X16.304 Y-10.266
X16.792 Y-9.712
X17.254 Y-9.137
X17.689 Y-8.541
X18.096 Y-7.925
X18.474 Y-7.292
X18.822 Y-6.641
X19.139 Y-5.975
X19.425 Y-5.295
X19.678 Y-4.602
X19.899 Y-3.898
X20.087 Y-3.185
X20.242 Y-2.463
X20.362 Y-1.735
X20.448 Y-1.002
X20.501 Y-0.267
X20.519 Y0.471
X20.502 Y1.209
X20.452 Y1.945
X20.367 Y2.678
X20.247 Y3.406
X20.093 Y4.127
X19.905 Y4.841
X19.685 Y5.545
X19.431 Y6.238
X19.145 Y6.918
X18.827 Y7.584
X18.478 Y8.234
X18.1 Y8.867
X17.693 Y9.482
X17.257 Y10.078
X16.794 Y10.653
X16.306 Y11.205
X15.791 Y11.734
X15.252 Y12.238
X14.69 Y12.716
X14.106 Y13.167
X13.502 Y13.591
X12.879 Y13.986
X12.238 Y14.351
X11.581 Y14.687
X10.909 Y14.992
X10.224 Y15.265
X9.527 Y15.507
X8.819 Y15.716
X8.103 Y15.892
X7.379 Y16.034
X6.649 Y16.142
X5.915 Y16.216
X5.178 Y16.256
X4.44 Y16.262
X3.703 Y16.233
X2.968 Y16.171
X2.236 Y16.075
X1.51 Y15.946
X0.79 Y15.784
X0.078 Y15.589
X-0.624 Y15.362
X-1.315 Y15.104
X-1.993 Y14.814
X-2.658 Y14.493
X-3.307 Y14.142
X-3.939 Y13.762
X-4.554 Y13.354
X-5.149 Y12.918
X-5.724 Y12.455
X-6.277 Y11.967
X-6.807 Y11.454
X-7.313 Y10.917
X-7.795 Y10.358
X-8.251 Y9.778
X-8.681 Y9.179
X-9.082 Y8.56
X-9.455 Y7.923
X-9.799 Y7.27
X-10.114 Y6.603
X-10.398 Y5.922
X-10.651 Y5.229
X-10.872 Y4.525
X-11.062 Y3.812
X-11.219 Y3.091
X-11.343 Y2.364
X-11.435 Y1.632
X-11.494 Y0.896
X-11.52 Y0.159
X-11.512 Y-0.579
X-11.471 Y-1.316
X-11.396 Y-2.05
X-11.289 Y-2.78
X-11.15 Y-3.504
X-10.978 Y-4.222
X-10.774 Y-4.931
X-10.539 Y-5.63
X-10.272 Y-6.318
X-9.975 Y-6.993
X-9.648 Y-7.655
X-9.292 Y-8.301
X-8.907 Y-8.93
X-8.494 Y-9.542
X-8.054 Y-10.134
X-7.587 Y-10.705
X-7.096 Y-11.256
X-6.58 Y-11.784
X-6.042 Y-12.288
X-5.481 Y-12.768
X-4.9 Y-13.222
X-4.298 Y-13.649
X-3.679 Y-14.05
X-3.042 Y-14.422
X-2.389 Y-14.765
X-1.721 Y-15.079
X-1.04 Y-15.363
X-0.347 Y-15.616
X0.357 Y-15.836
X1.071 Y-16.026
X1.791 Y-16.183
X2.519 Y-16.308
X3.251 Y-16.4
X3.986 Y-16.46
X4.723 Y-16.487
X5.461 Y-16.48
X6.198 Y-16.441
X6.932 Y-16.37
X7.663 Y-16.265
X8.388 Y-16.129
X9.106 Y-15.959
X9.816 Y-15.758
X10.516 Y-15.525
X11.205 Y-15.262
X11.882 Y-14.968
X12.545 Y-14.645
X13.194 Y-14.293
X13.826 Y-13.913
X14.441 Y-13.506
X15.038 Y-13.072
X15.615 Y-12.613
X16.172 Y-12.128
X16.707 Y-11.621
X17.22 Y-11.09
X17.709 Y-10.538
X18.173 Y-9.964
X18.612 Y-9.371
X19.024 Y-8.759
X19.411 Y-8.131
X19.77 Y-7.486
X20.1 Y-6.826
X20.402 Y-6.153
X20.675 Y-5.467
X20.918 Y-4.771
X21.131 Y-4.064
X21.313 Y-3.349
X21.464 Y-2.627
X21.584 Y-1.899
X21.671 Y-1.167
X21.726 Y-0.431
X21.749 Y0.307
X21.741 Y1.044
X21.7 Y1.781
X21.628 Y2.515
X21.524 Y3.246
X21.388 Y3.971
X21.22 Y4.69
X21.022 Y5.4
X20.793 Y6.102
X20.535 Y6.793
X20.246 Y7.472
X19.928 Y8.137
X19.581 Y8.788
X19.205 Y9.424
X18.803 Y10.042
X18.374 Y10.642
X17.919 Y11.224
X17.44 Y11.785
X16.937 Y12.324
X16.411 Y12.842
X15.864 Y13.336
X15.295 Y13.807
X14.707 Y14.252
X14.1 Y14.672
X13.476 Y15.065
X12.835 Y15.43
X12.179 Y15.767
X11.508 Y16.075
X10.825 Y16.354
X10.131 Y16.604
X9.426 Y16.823
X8.713 Y17.012
X7.992 Y17.171
X7.266 Y17.297
X6.534 Y17.393
X5.799 Y17.457
X5.062 Y17.49
X4.324 Y17.491
X3.587 Y17.461
X2.852 Y17.399
X2.12 Y17.305
X1.393 Y17.179
X0.672 Y17.023
X-0.042 Y16.837
X-0.747 Y16.62
X-1.443 Y16.374
X-2.128 Y16.099
X-2.8 Y15.795
X-3.459 Y15.463
X-4.103 Y15.104
X-4.732 Y14.717
X-5.344 Y14.305
X-5.937 Y13.867
X-6.512 Y13.404
X-7.066 Y12.917
X-7.599 Y12.406
X-8.109 Y11.874
X-8.597 Y11.32
X-9.061 Y10.747
X-9.501 Y10.154
X-9.916 Y9.544
X-10.304 Y8.917
X-10.666 Y8.274
X-11.001 Y7.616
X-11.308 Y6.945
X-11.587 Y6.262
X-11.837 Y5.568
X-12.058 Y4.864
X-12.249 Y4.152
X-12.409 Y3.431
X-12.538 Y2.705
X-12.637 Y1.974
X-12.706 Y1.239
X-12.744 Y0.502
X-12.751 Y-0.235
X-12.727 Y-0.973
X-12.672 Y-1.709
X-12.587 Y-2.442
X-12.471 Y-3.17
X-12.326 Y-3.894
X-12.151 Y-4.61
X-11.946 Y-5.319
X-11.711 Y-6.018
X-11.446 Y-6.707
X-11.153 Y-7.384
X-10.832 Y-8.048
X-10.483 Y-8.699
X-10.108 Y-9.334
X-9.706 Y-9.953
X-9.279 Y-10.555
X-8.828 Y-11.138
X-8.352 Y-11.702
X-7.854 Y-12.246
X-7.333 Y-12.769
X-6.792 Y-13.27
X-6.23 Y-13.749
X-5.648 Y-14.203
X-5.048 Y-14.632
X-4.43 Y-15.035
X-3.796 Y-15.412
X-3.147 Y-15.763
X-2.484 Y-16.086
X-1.808 Y-16.381
X-1.12 Y-16.648
X-0.421 Y-16.886
X0.286 Y-17.095
X1.002 Y-17.274
X1.724 Y-17.424
X2.453 Y-17.544
X3.185 Y-17.633
X3.92 Y-17.692
X4.658 Y-17.72
X5.395 Y-17.716
X6.132 Y-17.682
X6.867 Y-17.617
X7.599 Y-17.522
X8.326 Y-17.397
X9.048 Y-17.242
X9.762 Y-17.057
X10.468 Y-16.842
X11.164 Y-16.599
X11.85 Y-16.328
X12.525 Y-16.028
X13.186 Y-15.702
X13.834 Y-15.349
X14.467 Y-14.969
X15.083 Y-14.563
X15.682 Y-14.132
X16.263 Y-13.678
X16.825 Y-13.199
X17.367 Y-12.699
X17.889 Y-12.177
X18.388 Y-11.635
X18.866 Y-11.072
X19.32 Y-10.491
X19.751 Y-9.892
X20.157 Y-9.276
X20.539 Y-8.644
X20.895 Y-7.998
X21.224 Y-7.338
X21.527 Y-6.665
X21.802 Y-5.98
X22.048 Y-5.285
X22.267 Y-4.58
X22.457 Y-3.867
X22.618 Y-3.147
X22.751 Y-2.421
X22.853 Y-1.691
X22.926 Y-0.957
X22.969 Y-0.22
X22.982 Y0.518
X22.966 Y1.255
X22.921 Y1.992
X22.845 Y2.726
X22.74 Y3.456
X22.605 Y4.181
X22.441 Y4.9
X22.247 Y5.612
X22.024 Y6.316
X21.774 Y7.01
X21.495 Y7.693
X21.189 Y8.364
X20.856 Y9.023
X20.497 Y9.667
X20.111 Y10.296
X19.701 Y10.91
X19.267 Y11.506
X18.809 Y12.084
X18.328 Y12.644
X17.825 Y13.184
X17.3 Y13.702
X16.754 Y14.199
X16.189 Y14.673
X15.605 Y15.124
X15.003 Y15.551
X14.385 Y15.953
X13.751 Y16.331
X13.102 Y16.682
X12.44 Y17.007
X11.765 Y17.305
X11.079 Y17.576
X10.382 Y17.82
X9.676 Y18.035
X8.963 Y18.222
X8.242 Y18.38
X7.515 Y18.509
X6.784 Y18.608
X6.05 Y18.677
X5.313 Y18.717
X4.575 Y18.728
X3.838 Y18.709
X3.101 Y18.661
X2.368 Y18.583
X1.638 Y18.476
X0.913 Y18.34
X0.193 Y18.176
X-0.519 Y17.983
X-1.223 Y17.763
X-1.918 Y17.515
X-2.603 Y17.24
X-3.276 Y16.937
X-3.936 Y16.608
X-4.583 Y16.253
X-5.215 Y15.873
X-5.832 Y15.468
X-6.432 Y15.039
X-7.015 Y14.587
X-7.58 Y14.112
X-8.125 Y13.614
X-8.65 Y13.096
X-9.154 Y12.558
X-9.637 Y12.
X-10.098 Y11.424
X-10.536 Y10.83
X-10.95 Y10.22
X-11.34 Y9.593
X-11.705 Y8.952
X-12.044 Y8.296
X-12.357 Y7.628
X-12.644 Y6.949
X-12.904 Y6.258
X-13.137 Y5.558
X-13.342 Y4.849
X-13.52 Y4.133
X-13.668 Y3.411
X-13.789 Y2.683
X-13.881 Y1.951
X-13.945 Y1.216
X-13.98 Y0.479
X-13.986 Y-0.259
X-13.963 Y-0.997
X-13.911 Y-1.733
X-13.83 Y-2.466
X-13.721 Y-3.196
X-13.583 Y-3.921
X-13.418 Y-4.64
X-13.224 Y-5.352
X-13.003 Y-6.055
X-12.754 Y-6.75
X-12.479 Y-7.434
X-12.177 Y-8.108
X-11.849 Y-8.769
X-11.495 Y-9.416
X-11.117 Y-10.05
X-10.715 Y-10.668
X-10.288 Y-11.27
X-9.838 Y-11.855
X-9.365 Y-12.421
X-8.871 Y-12.969
X-8.356 Y-13.497
X-7.821 Y-14.005
X-7.266 Y-14.492
X-6.693 Y-14.957
X-6.102 Y-15.399
X-5.495 Y-15.817
X-4.871 Y-16.212
X-4.233 Y-16.582
X-3.581 Y-16.927
X-2.916 Y-17.246
X-2.239 Y-17.54
X-1.551 Y-17.807
X-0.853 Y-18.046
X-0.146 Y-18.258
X0.568 Y-18.442
X1.289 Y-18.598
X2.016 Y-18.726
X2.747 Y-18.827
X3.481 Y-18.898
X4.218 Y-18.941
X4.955 Y-18.955
X5.693 Y-18.941
X6.43 Y-18.898
X7.164 Y-18.826
X7.895 Y-18.726
X8.622 Y-18.598
X9.343 Y-18.443
X10.057 Y-18.258
X10.764 Y-18.046
X11.462 Y-17.807
X12.15 Y-17.541
X12.828 Y-17.249
X13.493 Y-16.931
X14.147 Y-16.588
X14.786 Y-16.221
X15.411 Y-15.828
X16.021 Y-15.413
X16.614 Y-14.974
X17.19 Y-14.513
X17.749 Y-14.031
X18.288 Y-13.528
X18.808 Y-13.004
X19.308 Y-12.462
X19.787 Y-11.9
X20.244 Y-11.321
X20.678 Y-10.724
X21.09 Y-10.112
X21.478 Y-9.485
X21.843 Y-8.844
X22.184 Y-8.189
X22.499 Y-7.522
X22.789 Y-6.844
X23.053 Y-6.155
X23.291 Y-5.456
X23.503 Y-4.749
X23.688 Y-4.035
X23.846 Y-3.314
X23.976 Y-2.588
X24.079 Y-1.858
X24.154 Y-1.124
X24.2 Y-0.387
X24.218 Y0.35
X24.209 Y1.088
X24.172 Y1.825
X24.107 Y2.56
X24.015 Y3.292
X23.895 Y4.02
X23.746 Y4.743
X23.571 Y5.459
X23.369 Y6.169
X23.14 Y6.87
X22.885 Y7.563
X22.603 Y8.245
X22.297 Y8.916
X21.964 Y9.574
X21.606 Y10.22
X21.224 Y10.851
X20.819 Y11.467
X20.39 Y12.068
X19.939 Y12.652
X19.467 Y13.219
X18.973 Y13.767
X18.459 Y14.296
X17.926 Y14.806
X17.373 Y15.295
X16.802 Y15.762
X16.215 Y16.208
X15.611 Y16.632
X14.991 Y17.032
X14.357 Y17.409
X13.708 Y17.762
X13.047 Y18.089
X12.374 Y18.391
X11.69 Y18.667
X10.996 Y18.918
X10.293 Y19.142
X9.582 Y19.34
X8.865 Y19.511
X8.141 Y19.655
X7.412 Y19.772
X6.68 Y19.861
X5.945 Y19.922
X5.208 Y19.956
X4.47 Y19.963
X3.732 Y19.942
X2.996 Y19.894
X2.262 Y19.817
X1.532 Y19.712
X0.806 Y19.581
X0.085 Y19.422
X-0.629 Y19.237
X-1.336 Y19.026
X-2.034 Y18.789
X-2.724 Y18.526
X-3.403 Y18.238
X-4.071 Y17.924
X-4.727 Y17.586
X-5.37 Y17.225
X-5.999 Y16.839
X-6.614 Y16.431
X-7.213 Y16.
X-7.795 Y15.548
X-8.36 Y15.073
X-8.907 Y14.578
X-9.435 Y14.062
X-9.944 Y13.528
X-10.432 Y12.975
X-10.901 Y12.405
X-11.347 Y11.818
X-11.772 Y11.215
X-12.175 Y10.596
X-12.554 Y9.963
X-12.91 Y9.317
X-13.242 Y8.658
X-13.55 Y7.988
X-13.833 Y7.306
X-14.09 Y6.615
X-14.323 Y5.915
X-14.529 Y5.206
X-14.708 Y4.49
X-14.86 Y3.769
X-14.986 Y3.042
X-15.085 Y2.31
X-15.158 Y1.576
X-15.204 Y0.84
X-15.223 Y0.102
X-15.214 Y-0.636
X-15.178 Y-1.373
X-15.116 Y-2.108
X-15.027 Y-2.84
X-14.911 Y-3.569
X-14.768 Y-4.293
X-14.6 Y-5.011
X-14.405 Y-5.723
X-14.185 Y-6.427
X-13.938 Y-7.122
X-13.665 Y-7.808
X-13.367 Y-8.483
X-13.045 Y-9.146
X-12.699 Y-9.798
X-12.33 Y-10.437
X-11.937 Y-11.062
X-11.522 Y-11.672
X-11.085 Y-12.266
X-10.626 Y-12.844
X-10.147 Y-13.404
X-9.647 Y-13.947
X-9.128 Y-14.472
X-8.591 Y-14.977
X-8.035 Y-15.463
X-7.462 Y-15.927
X-6.872 Y-16.37
X-6.266 Y-16.791
X-5.645 Y-17.189
X-5.009 Y-17.565
X-4.361 Y-17.917
X-3.7 Y-18.245
X-3.028 Y-18.549
X-2.345 Y-18.828
X-1.652 Y-19.082
X-0.951 Y-19.31
X-0.241 Y-19.513
X0.475 Y-19.689
X1.198 Y-19.84
X1.925 Y-19.964
X2.656 Y-20.062
X3.391 Y-20.133
X4.127 Y-20.177
X4.865 Y-20.193
X5.602 Y-20.183
X6.339 Y-20.145
X7.074 Y-20.081
X7.806 Y-19.99
X8.535 Y-19.872
X9.259 Y-19.729
X9.977 Y-19.559
X10.688 Y-19.363
X11.391 Y-19.141
X12.087 Y-18.894
X12.773 Y-18.622
X13.448 Y-18.325
X14.113 Y-18.005
X14.766 Y-17.661
X15.406 Y-17.294
X16.031 Y-16.903
X16.643 Y-16.49
X17.239 Y-16.055
X17.819 Y-15.599
X18.382 Y-15.123
X18.928 Y-14.627
X19.457 Y-14.111
X19.966 Y-13.578
X20.456 Y-13.026
X20.926 Y-12.457
X21.375 Y-11.872
X21.804 Y-11.272
X22.211 Y-10.656
X22.596 Y-10.027
X22.959 Y-9.384
X23.299 Y-8.73
X23.615 Y-8.063
X23.906 Y-7.385
X24.174 Y-6.697
X24.416 Y-6.001
X24.634 Y-5.296
X24.827 Y-4.584
X24.995 Y-3.865
X25.137 Y-3.141
X25.253 Y-2.412
X25.343 Y-1.68
X25.407 Y-0.945
X25.444 Y-0.208
X25.456 Y0.529
X25.441 Y1.267
X25.4 Y2.004
X25.334 Y2.739
X25.241 Y3.471
X25.122 Y4.199
X24.976 Y4.922
X24.804 Y5.64
X24.607 Y6.351
X24.385 Y7.054
X24.138 Y7.749
X23.866 Y8.435
X23.571 Y9.111
X23.251 Y9.776
X22.907 Y10.429
X22.541 Y11.07
X22.152 Y11.696
X21.741 Y12.309
X21.308 Y12.907
X20.855 Y13.489
X20.381 Y14.055
X19.888 Y14.603
X19.375 Y15.134
X18.843 Y15.645
X18.293 Y16.137
X17.726 Y16.609
X17.143 Y17.061
X16.544 Y17.492
X15.931 Y17.902
X15.303 Y18.29
X14.662 Y18.655
X14.008 Y18.997
X13.342 Y19.315
X12.666 Y19.61
X11.98 Y19.88
X11.284 Y20.127
X10.58 Y20.349
X9.869 Y20.546
X9.152 Y20.717
X8.429 Y20.863
X7.7 Y20.982
X6.969 Y21.076
X6.234 Y21.143
X5.497 Y21.185
X4.76 Y21.201
X4.022 Y21.191
X3.285 Y21.156
X2.55 Y21.094
X1.817 Y21.006
X1.088 Y20.892
X0.364 Y20.753
X-0.356 Y20.589
X-1.069 Y20.4
X-1.775 Y20.186
X-2.474 Y19.948
X-3.163 Y19.686
X-3.843 Y19.399
X-4.512 Y19.088
X-5.17 Y18.754
X-5.816 Y18.398
X-6.449 Y18.019
X-7.069 Y17.618
X-7.674 Y17.197
X-8.264 Y16.754
X-8.839 Y16.291
X-9.396 Y15.808
X-9.937 Y15.305
X-10.46 Y14.785
X-10.964 Y14.246
X-11.449 Y13.691
X-11.916 Y13.119
X-12.362 Y12.531
X-12.787 Y11.928
X-13.191 Y11.311
X-13.572 Y10.679
X-13.932 Y10.035
X-14.269 Y9.379
X-14.583 Y8.711
X-14.875 Y8.033
X-15.142 Y7.346
X-15.386 Y6.649
X-15.606 Y5.945
X-15.8 Y5.233
X-15.97 Y4.515
X-16.115 Y3.792
X-16.235 Y3.064
X-16.33 Y2.332
X-16.399 Y1.598
X-16.444 Y0.861
X-16.462 Y0.123
X-16.455 Y-0.614
X-16.422 Y-1.351
X-16.364 Y-2.087
X-16.28 Y-2.82
X-16.171 Y-3.55
X-16.037 Y-4.275
X-15.879 Y-4.996
X-15.695 Y-5.711
X-15.487 Y-6.418
X-15.255 Y-7.119
X-14.998 Y-7.81
X-14.718 Y-8.493
X-14.415 Y-9.165
X-14.088 Y-9.827
X-13.739 Y-10.477
X-13.368 Y-11.115
X-12.976 Y-11.74
X-12.561 Y-12.35
X-12.126 Y-12.946
X-11.67 Y-13.526
X-11.194 Y-14.09
X-10.699 Y-14.637
X-10.186 Y-15.167
X-9.656 Y-15.68
X-9.107 Y-16.174
X-8.543 Y-16.648
X-7.962 Y-17.103
X-7.365 Y-17.538
X-6.754 Y-17.951
X-6.129 Y-18.344
X-5.491 Y-18.714
X-4.841 Y-19.063
X-4.179 Y-19.389
X-3.507 Y-19.693
X-2.824 Y-19.972
X-2.132 Y-20.228
X-1.431 Y-20.459
X-0.723 Y-20.666
X-0.008 Y-20.849
X0.712 Y-21.007
X1.438 Y-21.14
X2.168 Y-21.249
X2.901 Y-21.333
X3.636 Y-21.391
X4.373 Y-21.423
X5.111 Y-21.43
X5.849 Y-21.412
X6.585 Y-21.369
X7.32 Y-21.3
X8.052 Y-21.207
X8.78 Y-21.088
X9.504 Y-20.945
X10.222 Y-20.776
X10.934 Y-20.583
X11.639 Y-20.365
X12.336 Y-20.123
X13.025 Y-19.858
X13.704 Y-19.569
X14.373 Y-19.258
X15.031 Y-18.925
X15.677 Y-18.569
X16.311 Y-18.191
X16.932 Y-17.792
X17.538 Y-17.372
X18.13 Y-16.932
X18.707 Y-16.472
X19.269 Y-15.993
X19.814 Y-15.496
X20.342 Y-14.981
X20.852 Y-14.448
X21.343 Y-13.897
X21.816 Y-13.331
X22.269 Y-12.748
X22.702 Y-12.151
X23.116 Y-11.54
X23.509 Y-10.916
X23.88 Y-10.278
X24.231 Y-9.629
X24.559 Y-8.968
X24.865 Y-8.297
X25.148 Y-7.616
X25.409 Y-6.925
X25.646 Y-6.227
X25.859 Y-5.52
X26.049 Y-4.808
X26.216 Y-4.089
X26.358 Y-3.365
X26.475 Y-2.636
X26.567 Y-1.904
X26.634 Y-1.169
X26.677 Y-0.433
X26.695 Y0.305
X26.688 Y1.043
X26.657 Y1.78
X26.601 Y2.515
X26.521 Y3.249
X26.415 Y3.979
X26.285 Y4.705
X26.131 Y5.427
X25.952 Y6.143
X25.75 Y6.852
X25.524 Y7.555
X25.275 Y8.249
X25.002 Y8.935
X24.707 Y9.611
X24.388 Y10.276
X24.047 Y10.93
X23.684 Y11.573
X23.3 Y12.202
X22.894 Y12.819
X22.469 Y13.422
X22.023 Y14.01
X21.559 Y14.583
X21.075 Y15.14
X20.573 Y15.681
X20.052 Y16.204
X19.515 Y16.709
X18.961 Y17.196
X18.391 Y17.665
X17.805 Y18.114
X17.205 Y18.543
X16.591 Y18.952
X15.964 Y19.341
X15.323 Y19.707
X14.671 Y20.052
X14.007 Y20.374
X13.333 Y20.674
X12.65 Y20.952
X11.957 Y21.206
X11.257 Y21.438
X10.549 Y21.646
X9.835 Y21.831
X9.114 Y21.991
X8.389 Y22.127
X7.66 Y22.239
X6.927 Y22.326
X6.192 Y22.389
X5.455 Y22.428
X4.718 Y22.442
X3.98 Y22.432
X3.243 Y22.397
X2.508 Y22.337
X1.775 Y22.252
X1.045 Y22.143
X0.319 Y22.01
X-0.402 Y21.853
X-1.117 Y21.673
X-1.826 Y21.469
X-2.528 Y21.242
X-3.223 Y20.992
X-3.908 Y20.719
X-4.584 Y20.424
X-5.25 Y20.106
X-5.905 Y19.767
X-6.549 Y19.406
X-7.18 Y19.025
X-7.799 Y18.623
X-8.404 Y18.2
X-8.995 Y17.758
X-9.571 Y17.297
X-10.13 Y16.816
X-10.674 Y16.317
X-11.201 Y15.801
X-11.71 Y15.267
X-12.203 Y14.717
X-12.676 Y14.152
X-13.132 Y13.571
X-13.568 Y12.976
X-13.984 Y12.367
X-14.379 Y11.744
X-14.755 Y11.109
X-15.109 Y10.462
X-15.442 Y9.803
X-15.753 Y9.134
X-16.043 Y8.456
X-16.31 Y7.768
X-16.554 Y7.072
X-16.775 Y6.368
X-16.973 Y5.657
X-17.147 Y4.94
X-17.297 Y4.218
X-17.424 Y3.491
X-17.527 Y2.76
X-17.607 Y2.027
X-17.663 Y1.291
X-17.694 Y0.554
X-17.702 Y-0.184
X-17.685 Y-0.922
X-17.644 Y-1.658
X-17.579 Y-2.393
X-17.49 Y-3.126
X-17.377 Y-3.855
X-17.241 Y-4.58
X-17.082 Y-5.3
X-16.899 Y-6.015
X-16.693 Y-6.724
X-16.463 Y-7.425
X-16.21 Y-8.118
X-15.935 Y-8.802
X-15.637 Y-9.478
X-15.318 Y-10.143
X-14.978 Y-10.797
X-14.617 Y-11.441
X-14.234 Y-12.072
X-13.832 Y-12.69
X-13.409 Y-13.295
X-12.967 Y-13.885
X-12.506 Y-14.461
X-12.026 Y-15.022
X-11.528 Y-15.567
X-11.013 Y-16.095
X-10.482 Y-16.607
X-9.934 Y-17.101
X-9.37 Y-17.576
X-8.79 Y-18.033
X-8.196 Y-18.47
X-7.588 Y-18.888
X-6.966 Y-19.286
X-6.332 Y-19.663
X-5.687 Y-20.02
X-5.03 Y-20.356
X-4.362 Y-20.67
X-3.685 Y-20.962
X-2.998 Y-21.232
X-2.303 Y-21.479
X-1.6 Y-21.704
X-0.89 Y-21.905
X-0.174 Y-22.084
X0.547 Y-22.239
X1.273 Y-22.371
X2.003 Y-22.48
X2.736 Y-22.564
X3.471 Y-22.624
X4.208 Y-22.66
X4.946 Y-22.672
X5.683 Y-22.66
X6.42 Y-22.624
X7.156 Y-22.564
X7.889 Y-22.48
X8.619 Y-22.373
X9.345 Y-22.243
X10.066 Y-22.089
X10.783 Y-21.911
X11.493 Y-21.71
X12.196 Y-21.486
X12.891 Y-21.24
X13.578 Y-20.972
X14.257 Y-20.682
X14.926 Y-20.37
X15.584 Y-20.037
X16.231 Y-19.683
X16.866 Y-19.308
X17.489 Y-18.912
X18.099 Y-18.496
X18.695 Y-18.062
X19.277 Y-17.608
X19.844 Y-17.137
X20.397 Y-16.647
X20.933 Y-16.141
X21.453 Y-15.617
X21.956 Y-15.077
X22.441 Y-14.521
X22.908 Y-13.95
X23.357 Y-13.365
X23.787 Y-12.765
X24.198 Y-12.153
X24.59 Y-11.527
X24.962 Y-10.89
X25.313 Y-10.241
X25.643 Y-9.581
X25.952 Y-8.911
X26.239 Y-8.232
X26.505 Y-7.543
X26.749 Y-6.847
X26.97 Y-6.143
X27.17 Y-5.433
X27.347 Y-4.717
X27.501 Y-3.995
X27.632 Y-3.269
X27.739 Y-2.539
X27.824 Y-1.806
X27.885 Y-1.071
X27.922 Y-0.334
X27.936 Y0.404
X27.927 Y1.142
X27.895 Y1.879
X27.84 Y2.614
X27.76 Y3.348
X27.657 Y4.078
X27.531 Y4.805
X27.381 Y5.528
X27.209 Y6.245
X27.013 Y6.957
X26.796 Y7.662
X26.556 Y8.359
X26.294 Y9.049
X26.011 Y9.73
X25.705 Y10.402
X25.379 Y11.064
X25.031 Y11.714
X24.663 Y12.354
X24.275 Y12.981
X23.867 Y13.596
X23.44 Y14.198
X22.994 Y14.786
X22.53 Y15.359
X22.047 Y15.917
X21.547 Y16.459
X21.029 Y16.985
X20.495 Y17.494
X19.945 Y17.987
X19.38 Y18.461
X18.801 Y18.917
X18.207 Y19.355
X17.6 Y19.774
X16.979 Y20.174
X16.347 Y20.553
X15.702 Y20.912
X15.046 Y21.251
X14.38 Y21.568
X13.705 Y21.864
X13.02 Y22.139
X12.327 Y22.393
X11.626 Y22.624
X10.919 Y22.833
X10.205 Y23.019
X9.485 Y23.183
X8.761 Y23.323
X8.033 Y23.44
X7.301 Y23.534
X6.566 Y23.605
X5.83 Y23.653
X5.093 Y23.678
X4.355 Y23.68
X3.617 Y23.659
X2.881 Y23.614
X2.146 Y23.546
X1.414 Y23.455
X0.685 Y23.34
X-0.04 Y23.204
X-0.76 Y23.044
X-1.475 Y22.863
X-2.184 Y22.659
X-2.887 Y22.433
X-3.582 Y22.185
X-4.268 Y21.915
X-4.946 Y21.623
X-5.614 Y21.311
X-6.273 Y20.977
X-6.92 Y20.624
X-7.557 Y20.251
X-8.181 Y19.858
X-8.793 Y19.446
X-9.392 Y19.014
X-9.977 Y18.565
X-10.547 Y18.097
X-11.102 Y17.611
X-11.643 Y17.108
X-12.167 Y16.589
X-12.675 Y16.054
X-13.166 Y15.503
X-13.64 Y14.938
X-14.096 Y14.358
X-14.533 Y13.764
X-14.952 Y13.156
X-15.351 Y12.535
X-15.731 Y11.903
X-16.091 Y11.259
X-16.431 Y10.604
X-16.751 Y9.939
X-17.05 Y9.265
X-17.328 Y8.582
X-17.585 Y7.89
X-17.82 Y7.191
X-18.033 Y6.484
X-18.224 Y5.771
X-18.393 Y5.053
X-18.54 Y4.33
X-18.664 Y3.603
X-18.766 Y2.872
X-18.845 Y2.139
X-18.901 Y1.403
X-18.935 Y0.666
X-18.945 Y-0.072
X-18.932 Y-0.81
X-18.896 Y-1.547
X-18.838 Y-2.282
X-18.757 Y-3.015
X-18.653 Y-3.746
X-18.527 Y-4.473
X-18.379 Y-5.196
X-18.209 Y-5.914
X-18.017 Y-6.626
X-17.802 Y-7.332
X-17.565 Y-8.031
X-17.307 Y-8.722
X-17.028 Y-9.405
X-16.728 Y-10.079
X-16.407 Y-10.743
X-16.066 Y-11.398
X-15.706 Y-12.041
X-15.325 Y-12.673
X-14.924 Y-13.293
X-14.504 Y-13.9
X-14.066 Y-14.493
X-13.61 Y-15.073
X-13.136 Y-15.638
X-12.645 Y-16.189
X-12.137 Y-16.725
X-11.614 Y-17.244
X-11.074 Y-17.748
X-10.519 Y-18.234
X-9.949 Y-18.703
X-9.365 Y-19.153
X-8.768 Y-19.586
X-8.157 Y-20.
X-7.534 Y-20.395
X-6.899 Y-20.771
X-6.253 Y-21.127
X-5.596 Y-21.463
X-4.929 Y-21.778
X-4.252 Y-22.073
X-3.567 Y-22.346
X-2.873 Y-22.597
X-2.172 Y-22.827
X-1.464 Y-23.036
X-0.751 Y-23.223
X-0.031 Y-23.387
X0.692 Y-23.53
X1.42 Y-23.651
X2.152 Y-23.749
X2.886 Y-23.824
X3.622 Y-23.876
X4.359 Y-23.906
X5.097 Y-23.913
X5.834 Y-23.897
X6.571 Y-23.859
X7.306 Y-23.798
X8.039 Y-23.715
X8.77 Y-23.609
X9.496 Y-23.48
X10.218 Y-23.329
X10.935 Y-23.155
X11.647 Y-22.96
X12.352 Y-22.743
X13.05 Y-22.504
X13.741 Y-22.245
X14.423 Y-21.964
X15.097 Y-21.663
X15.761 Y-21.342
X16.415 Y-21.
X17.058 Y-20.639
X17.69 Y-20.258
X18.31 Y-19.858
X18.917 Y-19.439
X19.512 Y-19.002
X20.093 Y-18.547
X20.66 Y-18.075
X21.213 Y-17.587
X21.75 Y-17.081
X22.272 Y-16.559
X22.777 Y-16.022
X23.266 Y-15.469
X23.738 Y-14.902
X24.193 Y-14.321
X24.63 Y-13.726
X25.049 Y-13.119
X25.45 Y-12.5
X25.832 Y-11.869
X26.195 Y-11.226
X26.538 Y-10.573
X26.862 Y-9.91
X27.165 Y-9.237
X27.448 Y-8.556
X27.71 Y-7.866
X27.951 Y-7.169
X28.172 Y-6.465
X28.371 Y-5.755
X28.549 Y-5.039
X28.705 Y-4.317
X28.838 Y-3.592
X28.95 Y-2.862
X29.039 Y-2.13
X29.107 Y-1.395
X29.152 Y-0.659
X29.175 Y0.079
X29.176 Y0.816
X29.155 Y1.554
X29.112 Y2.29
X29.047 Y3.025
X28.959 Y3.758
X28.849 Y4.487
X28.716 Y5.213
X28.562 Y5.935
X28.387 Y6.652
X28.19 Y7.363
X27.971 Y8.067
X27.732 Y8.765
X27.471 Y9.455
X27.19 Y10.137
X26.887 Y10.81
X26.565 Y11.474
X26.222 Y12.127
X25.86 Y12.77
X25.478 Y13.402
X25.078 Y14.022
X24.66 Y14.629
X24.223 Y15.224
X23.769 Y15.806
X23.298 Y16.373
X22.809 Y16.926
X22.304 Y17.463
X21.782 Y17.986
X21.246 Y18.492
X20.694 Y18.982
X20.128 Y19.455
X19.548 Y19.911
X18.955 Y20.35
X18.348 Y20.77
X17.729 Y21.172
X17.098 Y21.554
X16.456 Y21.917
X15.803 Y22.261
X15.14 Y22.585
X14.468 Y22.889
X13.787 Y23.173
X13.098 Y23.436
X12.401 Y23.679
X11.698 Y23.901
X10.987 Y24.101
X10.272 Y24.28
X9.551 Y24.437
X8.825 Y24.572
X8.096 Y24.686
X7.364 Y24.778
X6.63 Y24.848
X5.894 Y24.896
X5.156 Y24.922
X4.418 Y24.925
X3.681 Y24.906
X2.944 Y24.865
X2.209 Y24.802
X1.476 Y24.717
X0.746 Y24.61
X0.02 Y24.482
X-0.703 Y24.332
X-1.421 Y24.161
X-2.133 Y23.969
X-2.839 Y23.756
X-3.539 Y23.522
X-4.231 Y23.266
X-4.916 Y22.991
X-5.592 Y22.695
X-6.258 Y22.379
X-6.916 Y22.044
X-7.563 Y21.689
X-8.199 Y21.316
X-8.824 Y20.924
X-9.437 Y20.513
X-10.037 Y20.084
X-10.624 Y19.637
X-11.198 Y19.173
X-11.757 Y18.692
X-12.303 Y18.195
X-12.833 Y17.682
X-13.348 Y17.154
X-13.847 Y16.61
X-14.33 Y16.053
X-14.796 Y15.481
X-15.245 Y14.895
X-15.677 Y14.297
X-16.09 Y13.686
X-16.486 Y13.063
X-16.862 Y12.429
X-17.221 Y11.783
X-17.56 Y11.128
X-17.879 Y10.463
X-18.18 Y9.789
X-18.459 Y9.106
X-18.718 Y8.416
X-18.957 Y7.718
X-19.175 Y7.013
X-19.372 Y6.302
X-19.547 Y5.585
X-19.702 Y4.864
X-19.836 Y4.138
X-19.948 Y3.409
X-20.039 Y2.677
X-20.109 Y1.942
X-20.156 Y1.206
X-20.182 Y0.468
X-20.186 Y-0.269
X-20.168 Y-1.007
X-20.129 Y-1.744
X-20.068 Y-2.479
X-19.986 Y-3.212
X-19.882 Y-3.943
X-19.757 Y-4.67
X-19.61 Y-5.393
X-19.442 Y-6.112
X-19.253 Y-6.825
X-19.043 Y-7.532
X-18.812 Y-8.233
X-18.56 Y-8.926
X-18.289 Y-9.612
X-17.997 Y-10.29
X-17.686 Y-10.959
X-17.355 Y-11.619
X-17.006 Y-12.268
X-16.637 Y-12.907
X-16.249 Y-13.535
X-15.844 Y-14.151
X-15.42 Y-14.755
X-14.978 Y-15.346
X-14.52 Y-15.925
X-14.045 Y-16.489
X-13.553 Y-17.039
X-13.046 Y-17.575
X-12.524 Y-18.096
X-11.985 Y-18.601
X-11.433 Y-19.09
X-10.866 Y-19.562
X-10.285 Y-20.017
X-9.691 Y-20.455
X-9.085 Y-20.875
X-8.467 Y-21.278
X-7.837 Y-21.663
X-7.196 Y-22.029
X-6.545 Y-22.376
X-5.884 Y-22.703
X-5.214 Y-23.011
X-4.535 Y-23.3
X-3.847 Y-23.568
X-3.152 Y-23.815
X-2.45 Y-24.043
X-1.742 Y-24.25
X-1.028 Y-24.436
X-0.309 Y-24.601
X0.414 Y-24.745
X1.142 Y-24.867
X1.873 Y-24.968
X2.606 Y-25.048
X3.342 Y-25.105
X4.079 Y-25.141
X4.817 Y-25.156
X5.554 Y-25.149
X6.292 Y-25.12
X7.028 Y-25.071
X7.762 Y-24.999
X8.494 Y-24.907
X9.223 Y-24.793
X9.948 Y-24.657
X10.669 Y-24.5
X11.385 Y-24.322
X12.096 Y-24.124
X12.8 Y-23.905
X13.498 Y-23.665
X14.189 Y-23.406
X14.872 Y-23.126
X15.546 Y-22.827
X16.212 Y-22.508
X16.867 Y-22.17
X17.513 Y-21.812
X18.148 Y-21.437
X18.771 Y-21.042
X19.384 Y-20.631
X19.984 Y-20.201
X20.571 Y-19.755
X21.146 Y-19.292
X21.707 Y-18.813
X22.253 Y-18.317
X22.786 Y-17.806
X23.303 Y-17.28
X23.804 Y-16.739
X24.29 Y-16.184
X24.76 Y-15.615
X25.214 Y-15.033
X25.651 Y-14.439
X26.07 Y-13.832
X26.472 Y-13.213
X26.856 Y-12.583
X27.222 Y-11.942
X27.569 Y-11.291
X27.897 Y-10.63
X28.206 Y-9.96
X28.495 Y-9.282
X28.766 Y-8.595
X29.016 Y-7.901
X29.247 Y-7.2
X29.458 Y-6.493
X29.648 Y-5.78
X29.818 Y-5.062
X29.967 Y-4.34
X30.095 Y-3.613
X30.202 Y-2.883
X30.288 Y-2.15
X30.353 Y-1.415
X30.397 Y-0.679
X30.42 Y0.059
X30.422 Y0.796
X30.403 Y1.534
X30.362 Y2.271
X30.299 Y3.006
X30.216 Y3.739
X30.112 Y4.469
X29.986 Y5.196
X29.84 Y5.92
X29.673 Y6.638
X29.486 Y7.352
X29.278 Y8.06
X29.05 Y8.762
X28.802 Y9.457
X28.534 Y10.144
X28.246 Y10.823
X27.939 Y11.494
X27.613 Y12.156
X27.267 Y12.808
X26.904 Y13.45
X26.522 Y14.081
X26.122 Y14.701
X25.704 Y15.309
X25.269 Y15.905
X24.817 Y16.488
X24.348 Y17.058
X23.863 Y17.614
X23.363 Y18.156
X22.847 Y18.683
X22.316 Y19.196
X21.77 Y19.693
X21.211 Y20.174
X20.638 Y20.639
X20.053 Y21.088
X19.454 Y21.519
X18.843 Y21.933
X18.221 Y22.33
X17.588 Y22.708
X16.944 Y23.068
X16.289 Y23.409
X15.626 Y23.732
X14.953 Y24.035
X14.273 Y24.32
X13.584 Y24.585
X12.888 Y24.829
X12.185 Y25.054
X11.476 Y25.258
X10.762 Y25.442
X10.042 Y25.605
X9.318 Y25.748
X8.591 Y25.87
X7.86 Y25.971
X7.126 Y26.052
X6.391 Y26.112
X5.654 Y26.151
X4.917 Y26.168
X4.179 Y26.165
X3.441 Y26.14
X2.705 Y26.095
X1.97 Y26.028
X1.238 Y25.941
X0.508 Y25.833
X-0.219 Y25.704
X-0.942 Y25.555
X-1.66 Y25.386
X-2.373 Y25.196
X-3.08 Y24.985
X-3.781 Y24.755
X-4.475 Y24.505
X-5.162 Y24.235
X-5.841 Y23.946
X-6.511 Y23.639
X-7.173 Y23.312
X-7.825 Y22.967
X-8.467 Y22.604
X-9.099 Y22.223
X-9.719 Y21.824
X-10.328 Y21.407
X-10.925 Y20.973
X-11.51 Y20.523
X-12.081 Y20.056
X-12.639 Y19.574
X-13.183 Y19.076
X-13.714 Y18.562
X-14.229 Y18.035
X-14.729 Y17.492
X-15.214 Y16.936
X-15.683 Y16.366
X-16.135 Y15.783
X-16.571 Y15.188
X-16.99 Y14.581
X-17.392 Y13.962
X-17.776 Y13.332
X-18.142 Y12.691
X-18.491 Y12.041
X-18.821 Y11.381
X-19.132 Y10.712
X-19.425 Y10.035
X-19.698 Y9.35
X-19.952 Y8.657
X-20.186 Y7.957
X-20.401 Y7.251
X-20.596 Y6.54
X-20.77 Y5.823
X-20.925 Y5.101
X-21.059 Y4.376
X-21.173 Y3.647
X-21.266 Y2.915
X-21.338 Y2.181
X-21.39 Y1.445
X-21.421 Y0.708
X-21.431 Y-0.03
X-21.421 Y-0.768
X-21.39 Y-1.505
X-21.338 Y-2.241
X-21.266 Y-2.975
X-21.174 Y-3.707
X-21.062 Y-4.436
X-20.928 Y-5.162
X-20.775 Y-5.884
X-20.601 Y-6.601
X-20.407 Y-7.313
X-20.194 Y-8.019
X-19.96 Y-8.719
X-19.708 Y-9.412
X-19.436 Y-10.098
X-19.145 Y-10.776
X-18.835 Y-11.446
X-18.506 Y-12.106
X-18.159 Y-12.757
X-17.793 Y-13.398
X-17.41 Y-14.028
X-17.009 Y-14.648
X-16.591 Y-15.256
X-16.156 Y-15.852
X-15.705 Y-16.436
X-15.238 Y-17.007
X-14.755 Y-17.565
X-14.257 Y-18.109
X-13.744 Y-18.639
X-13.216 Y-19.155
X-12.674 Y-19.655
X-12.118 Y-20.14
X-11.548 Y-20.609
X-10.966 Y-21.062
X-10.371 Y-21.499
X-9.765 Y-21.919
X-9.147 Y-22.322
X-8.518 Y-22.708
X-7.878 Y-23.075
X-7.228 Y-23.425
X-6.569 Y-23.756
X-5.9 Y-24.068
X-5.223 Y-24.362
X-4.539 Y-24.636
X-3.846 Y-24.891
X-3.147 Y-25.127
X-2.442 Y-25.344
X-1.731 Y-25.541
X-1.015 Y-25.718
X-0.294 Y-25.875
X0.431 Y-26.011
X1.16 Y-26.127
X1.892 Y-26.223
X2.626 Y-26.299
X3.361 Y-26.353
X4.098 Y-26.387
X4.836 Y-26.401
X5.574 Y-26.394
X6.311 Y-26.367
X7.047 Y-26.319
X7.782 Y-26.25
X8.514 Y-26.161
X9.244 Y-26.051
X9.97 Y-25.921
X10.693 Y-25.771
X11.41 Y-25.601
X12.123 Y-25.41
X12.831 Y-25.201
X13.532 Y-24.972
X14.227 Y-24.723
X14.914 Y-24.456
X15.594 Y-24.169
X16.266 Y-23.864
X16.929 Y-23.54
X17.583 Y-23.198
X18.227 Y-22.838
X18.86 Y-22.46
X19.483 Y-22.065
X20.096 Y-21.653
X20.696 Y-21.224
X21.285 Y-20.779
X21.86 Y-20.318
X22.423 Y-19.841
X22.973 Y-19.348
X23.508 Y-18.841
X24.03 Y-18.319
X24.537 Y-17.783
X25.029 Y-17.233
X25.506 Y-16.671
X25.968 Y-16.095
X26.413 Y-15.507
X26.843 Y-14.907
X27.256 Y-14.296
X27.652 Y-13.673
X28.03 Y-13.04
X28.392 Y-12.397
X28.735 Y-11.744
X29.061 Y-11.082
X29.368 Y-10.411
X29.657 Y-9.732
X29.928 Y-9.045
X30.179 Y-8.352
X30.412 Y-7.652
X30.625 Y-6.945
X30.818 Y-6.233
X30.992 Y-5.516
X31.146 Y-4.795
X31.281 Y-4.069
X31.395 Y-3.34
X31.49 Y-2.609
X31.564 Y-1.875
X31.619 Y-1.139
X31.653 Y-0.402
X31.667 Y0.336
X31.662 Y1.074
X31.635 Y1.811
X31.589 Y2.547
X31.522 Y3.282
X31.435 Y4.015
X31.328 Y4.745
X31.202 Y5.472
X31.055 Y6.195
X30.889 Y6.914
X30.703 Y7.628
X30.497 Y8.336
X30.272 Y9.039
X30.027 Y9.735
X29.764 Y10.424
X29.481 Y11.106
X29.18 Y11.779
X28.861 Y12.444
X28.523 Y13.101
X28.168 Y13.747
X27.796 Y14.384
X27.406 Y15.01
X26.999 Y15.626
X26.575 Y16.23
X26.135 Y16.822
X25.679 Y17.402
X25.207 Y17.969
X24.72 Y18.523
X24.218 Y19.064
X23.701 Y19.591
X23.17 Y20.103
X22.625 Y20.6
X22.067 Y21.083
X21.496 Y21.55
X20.912 Y22.001
X20.316 Y22.436
X19.708 Y22.854
X19.089 Y23.255
X18.459 Y23.64
X17.819 Y24.007
X17.169 Y24.357
X16.51 Y24.688
X15.843 Y25.002
X15.167 Y25.298
X14.483 Y25.575
X13.792 Y25.833
X13.094 Y26.072
X12.389 Y26.292
X11.679 Y26.493
X10.964 Y26.674
X10.244 Y26.835
X9.52 Y26.978
X8.793 Y27.1
X8.062 Y27.202
X7.329 Y27.285
X6.594 Y27.347
X5.857 Y27.389
X5.119 Y27.411
X4.382 Y27.413
X3.644 Y27.395
X2.907 Y27.357
X2.172 Y27.299
X1.438 Y27.221
X0.707 Y27.123
X-0.022 Y27.006
X-0.747 Y26.869
X-1.468 Y26.712
X-2.184 Y26.536
X-2.896 Y26.341
X-3.602 Y26.126
X-4.301 Y25.892
X-4.995 Y25.64
X-5.681 Y25.369
X-6.36 Y25.08
X-7.03 Y24.772
X-7.692 Y24.446
X-8.345 Y24.103
X-8.989 Y23.742
X-9.622 Y23.364
X-10.245 Y22.968
X-10.857 Y22.556
X-11.458 Y22.128
X-12.047 Y21.684
X-12.624 Y21.224
X-13.188 Y20.748
X-13.739 Y20.258
X-14.277 Y19.753
X-14.801 Y19.233
X-15.311 Y18.7
X-15.807 Y18.154
X-16.287 Y17.594
X-16.753 Y17.021
X-17.202 Y16.436
X-17.636 Y15.839
X-18.054 Y15.231
X-18.455 Y14.612
X-18.84 Y13.982
X-19.207 Y13.342
X-19.557 Y12.693
X-19.89 Y12.034
X-20.204 Y11.367
X-20.501 Y10.691
X-20.779 Y10.008
X-21.039 Y9.317
X-21.28 Y8.62
X-21.503 Y7.917
X-21.706 Y7.207
X-21.891 Y6.493
X-22.056 Y5.774
X-22.202 Y5.051
X-22.329 Y4.324
X-22.436 Y3.594
X-22.524 Y2.862
X-22.592 Y2.127
X-22.64 Y1.391
X-22.668 Y0.653
X-22.677 Y-0.084
X-22.666 Y-0.822
X-22.636 Y-1.559
X-22.585 Y-2.295
X-22.515 Y-3.03
X-22.425 Y-3.762
X-22.316 Y-4.492
X-22.187 Y-5.218
X-22.038 Y-5.941
X-21.871 Y-6.66
X-21.684 Y-7.373
X-21.478 Y-8.082
X-21.253 Y-8.785
X-21.01 Y-9.481
X-20.748 Y-10.171
X-20.468 Y-10.854
X-20.17 Y-11.529
X-19.854 Y-12.195
X-19.52 Y-12.853
X-19.169 Y-13.502
X-18.8 Y-14.141
X-18.415 Y-14.77
X-18.013 Y-15.389
X-17.594 Y-15.996
X-17.16 Y-16.593
X-16.709 Y-17.177
X-16.243 Y-17.749
X-15.762 Y-18.309
X-15.266 Y-18.855
X-14.756 Y-19.388
X-14.232 Y-19.907
X-13.694 Y-20.412
X-13.142 Y-20.902
X-12.578 Y-21.377
X-12.001 Y-21.838
X-11.413 Y-22.282
X-10.812 Y-22.711
X-10.201 Y-23.124
X-9.578 Y-23.52
X-8.946 Y-23.9
X-8.303 Y-24.262
X-7.651 Y-24.607
X-6.99 Y-24.935
X-6.32 Y-25.245
X-5.643 Y-25.537
X-4.957 Y-25.81
X-4.265 Y-26.066
X-3.566 Y-26.302
X-2.861 Y-26.52
X-2.151 Y-26.719
X-1.435 Y-26.899
X-0.715 Y-27.06
X0.009 Y-27.201
X0.736 Y-27.323
X1.467 Y-27.426
X2.2 Y-27.509
X2.935 Y-27.573
X3.672 Y-27.616
X4.409 Y-27.641
X5.147 Y-27.646
X5.885 Y-27.631
X6.622 Y-27.597
X7.358 Y-27.542
X8.092 Y-27.469
X8.824 Y-27.375
X9.553 Y-27.263
X10.279 Y-27.13
X11.001 Y-26.979
X11.719 Y-26.809
X12.432 Y-26.619
X13.139 Y-26.411
X13.841 Y-26.184
X14.537 Y-25.938
X15.226 Y-25.674
X15.908 Y-25.391
X16.582 Y-25.091
X17.247 Y-24.773
X17.905 Y-24.438
X18.553 Y-24.085
X19.191 Y-23.715
X19.82 Y-23.329
X20.438 Y-22.926
X21.045 Y-22.508
X21.642 Y-22.073
X22.226 Y-21.623
X22.799 Y-21.157
X23.359 Y-20.677
X23.906 Y-20.182
X24.44 Y-19.673
X24.96 Y-19.15
X25.467 Y-18.614
X25.959 Y-18.064
X26.437 Y-17.502
X26.9 Y-16.927
X27.348 Y-16.341
X27.78 Y-15.743
X28.196 Y-15.134
X28.596 Y-14.514
X28.98 Y-13.884
X29.347 Y-13.244
X29.698 Y-12.595
X30.031 Y-11.936
X30.347 Y-11.27
X30.646 Y-10.595
X30.927 Y-9.913
X31.19 Y-9.224
X31.435 Y-8.528
X31.662 Y-7.826
X31.87 Y-7.118
X32.06 Y-6.405
X32.231 Y-5.687
X32.383 Y-4.965
X32.516 Y-4.239
X32.63 Y-3.51
X32.726 Y-2.779
X32.801 Y-2.045
X32.858 Y-1.309
X32.895 Y-0.572
X32.913 Y0.165
X32.911 Y0.903
X32.89 Y1.641
X32.85 Y2.377
X32.791 Y3.113
X32.712 Y3.846
X32.614 Y4.578
X32.497 Y5.306
X32.361 Y6.031
X32.206 Y6.753
X32.033 Y7.47
X31.84 Y8.182
X31.629 Y8.889
X31.4 Y9.59
X31.152 Y10.285
X30.886 Y10.973
X30.602 Y11.654
X30.3 Y12.328
X29.981 Y12.993
X29.644 Y13.649
X29.29 Y14.297
X28.92 Y14.935
X28.532 Y15.563
X28.129 Y16.18
X27.709 Y16.787
X27.274 Y17.383
X26.823 Y17.967
X26.357 Y18.539
X25.876 Y19.099
X25.381 Y19.645
X24.871 Y20.179
X24.348 Y20.7
X23.812 Y21.206
X23.262 Y21.699
X22.7 Y22.176
X22.126 Y22.639
X21.539 Y23.087
X20.941 Y23.519
X20.332 Y23.936
X19.712 Y24.336
X19.082 Y24.72
X18.443 Y25.087
X17.793 Y25.438
X17.135 Y25.771
X16.469 Y26.087
X15.794 Y26.386
X15.112 Y26.667
X14.422 Y26.93
X13.726 Y27.175
X13.024 Y27.401
X12.316 Y27.61
X11.603 Y27.799
X10.886 Y27.97
X10.164 Y28.123
X9.438 Y28.257
X8.709 Y28.371
X7.978 Y28.467
X7.244 Y28.544
X6.508 Y28.601
X5.771 Y28.64
X5.034 Y28.659
X4.296
X3.559 Y28.639
X2.822 Y28.601
X2.086 Y28.544
X1.352 Y28.467
X0.621 Y28.371
X-0.108 Y28.256
X-0.834 Y28.123
X-1.556 Y27.971
X-2.273 Y27.8
X-2.987 Y27.61
X-3.694 Y27.402
X-4.397 Y27.176
X-5.093 Y26.932
X-5.783 Y26.671
X-6.466 Y26.391
X-7.141 Y26.094
X-7.809 Y25.78
X-8.468 Y25.448
X-9.118 Y25.1
X-9.759 Y24.735
X-10.391 Y24.354
X-11.012 Y23.956
X-11.623 Y23.542
X-12.224 Y23.113
X-12.813 Y22.669
X-13.39 Y22.209
X-13.955 Y21.735
X-14.507 Y21.246
X-15.047 Y20.743
X-15.574 Y20.226
X-16.087 Y19.696
X-16.586 Y19.153
X-17.072 Y18.597
X-17.542 Y18.029
X-17.998 Y17.449
X-18.439 Y16.857
X-18.865 Y16.255
X-19.275 Y15.641
X-19.67 Y15.018
X-20.048 Y14.384
X-20.41 Y13.741
X-20.755 Y13.089
X-21.083 Y12.428
X-21.394 Y11.759
X-21.688 Y11.083
X-21.965 Y10.399
X-22.224 Y9.708
X-22.465 Y9.011
X-22.688 Y8.307
X-22.893 Y7.598
X-23.079 Y6.885
X-23.248 Y6.166
X-23.397 Y5.444
X-23.528 Y4.718
X-23.641 Y3.988
X-23.734 Y3.257
X-23.809 Y2.523
X-23.865 Y1.787
X-23.902 Y1.05
X-23.921 Y0.312
X-23.92 Y-0.425
X-23.901 Y-1.163
X-23.863 Y-1.9
X-23.806 Y-2.635
X-23.731 Y-3.369
X-23.636 Y-4.101
X-23.523 Y-4.83
X-23.391 Y-5.556
X-23.241 Y-6.278
X-23.072 Y-6.997
X-22.885 Y-7.71
X-22.68 Y-8.419
X-22.456 Y-9.122
X-22.215 Y-9.819
X-21.956 Y-10.51
X-21.679 Y-11.194
X-21.384 Y-11.871
X-21.073 Y-12.54
X-20.745 Y-13.2
X-20.399 Y-13.852
X-20.037 Y-14.495
X-19.659 Y-15.129
X-19.265 Y-15.753
X-18.855 Y-16.366
X-18.43 Y-16.969
X-17.989 Y-17.561
X-17.534 Y-18.141
X-17.063 Y-18.709
X-16.579 Y-19.266
X-16.08 Y-19.809
X-15.567 Y-20.34
X-15.042 Y-20.858
X-14.503 Y-21.362
X-13.951 Y-21.852
X-13.387 Y-22.328
X-12.811 Y-22.789
X-12.224 Y-23.235
X-11.625 Y-23.666
X-11.015 Y-24.081
X-10.395 Y-24.481
X-9.765 Y-24.865
X-9.125 Y-25.232
X-8.476 Y-25.583
X-7.818 Y-25.918
X-7.152 Y-26.235
X-6.479 Y-26.536
X-5.797 Y-26.819
X-5.109 Y-27.085
X-4.414 Y-27.333
X-3.713 Y-27.563
X-3.007 Y-27.776
X-2.295 Y-27.97
X-1.578 Y-28.146
X-0.857 Y-28.303
X-0.133 Y-28.443
X0.595 Y-28.563
X1.326 Y-28.665
X2.059 Y-28.749
X2.794 Y-28.814
X3.53 Y-28.859
X4.268 Y-28.886
X5.005 Y-28.894
X5.743 Y-28.883
X6.48 Y-28.853
X7.216 Y-28.805
X7.951 Y-28.738
X8.684 Y-28.652
X9.414 Y-28.547
X10.142 Y-28.424
X10.866 Y-28.283
X11.586 Y-28.123
X12.302 Y-27.945
X13.014 Y-27.749
X13.72 Y-27.535
X14.42 Y-27.303
X15.114 Y-27.053
X15.802 Y-26.786
X16.483 Y-26.501
X17.156 Y-26.2
X17.822 Y-25.881
X18.479 Y-25.546
X19.127 Y-25.194
X19.767 Y-24.825
X20.396 Y-24.441
X21.016 Y-24.041
X21.626 Y-23.625
X22.224 Y-23.194
X22.812 Y-22.748
X23.389 Y-22.287
X23.953 Y-21.812
X24.506 Y-21.323
X25.046 Y-20.821
X25.573 Y-20.305
X26.087 Y-19.775
X26.588 Y-19.234
X27.075 Y-18.679
X27.548 Y-18.113
X28.007 Y-17.535
X28.451 Y-16.946
X28.88 Y-16.346
X29.294 Y-15.735
X29.692 Y-15.114
X30.075 Y-14.483
X30.442 Y-13.843
X30.793 Y-13.194
X31.127 Y-12.536
X31.445 Y-11.871
X31.746 Y-11.197
X32.03 Y-10.516
X32.297 Y-9.828
X32.546 Y-9.134
X32.778 Y-8.433
X32.993 Y-7.727
X33.19 Y-7.016
X33.369 Y-6.301
X33.53 Y-5.581
X33.673 Y-4.857
X33.797 Y-4.129
X33.904 Y-3.399
X33.992 Y-2.667
X34.062 Y-1.932
X34.113 Y-1.196
X34.146 Y-0.459
X34.161 Y0.278
X34.157 Y1.016
X34.134 Y1.754
X34.093 Y2.49
X34.034 Y3.226
X33.956 Y3.959
X33.859 Y4.691
X33.744 Y5.42
X33.611 Y6.145
X33.46 Y6.868
X33.29 Y7.586
X33.103 Y8.299
X32.897 Y9.008
X32.674 Y9.711
X32.434 Y10.409
X32.176 Y11.1
X31.901 Y11.784
X31.608 Y12.462
X31.299 Y13.132
X30.973 Y13.794
X30.631 Y14.447
X30.272 Y15.092
X29.897 Y15.728
X29.507 Y16.354
X29.101 Y16.97
X28.679 Y17.575
X28.243 Y18.17
X27.791 Y18.754
X27.326 Y19.326
X26.846 Y19.886
X26.352 Y20.434
X25.844 Y20.97
X25.323 Y21.492
X24.789 Y22.002
X24.243 Y22.497
X23.684 Y22.979
X23.114 Y23.447
X22.532 Y23.901
X21.938 Y24.339
X21.334 Y24.763
X20.72 Y25.172
X20.096 Y25.565
X19.462 Y25.942
X18.818 Y26.303
X18.166 Y26.649
X17.506 Y26.977
X16.837 Y27.289
X16.161 Y27.585
X15.478 Y27.863
X14.788 Y28.124
X14.091 Y28.368
X13.389 Y28.595
X12.682 Y28.804
X11.969 Y28.995
X11.252 Y29.168
X10.53 Y29.323
X9.805 Y29.459
X9.077 Y29.578
X8.515 Y29.656
X8.482 Y29.659
X8.448 Y29.662
X8.414 Y29.663
X2.095
X1.359 Y29.626
X0.622 Y29.58
X-0.111 Y29.494
X-0.839 Y29.378
X-1.564 Y29.238
X-2.284 Y29.077
X-2.999 Y28.897
X-3.71 Y28.699
X-4.415 Y28.482
X-5.115 Y28.248
X-5.809 Y27.997
X-6.496 Y27.728
X-7.176 Y27.443
X-7.849 Y27.141
X-8.515 Y26.822
X-9.172 Y26.487
X-9.821 Y26.136
X-10.461 Y25.769
X-11.092 Y25.387
X-11.713 Y24.989
X-12.325 Y24.575
X-12.925 Y24.147
X-13.515 Y23.704
X-14.094 Y23.246
X-14.661 Y22.774
X-15.216 Y22.287
X-15.758 Y21.788
X-16.289 Y21.275
X-16.806 Y20.749
X-17.311 Y20.211
X-17.802 Y19.66
X-18.279 Y19.097
X-18.743 Y18.523
X-19.192 Y17.938
X-19.626 Y17.342
X-20.046 Y16.735
X-20.451 Y16.118
X-20.841 Y15.492
X-21.215 Y14.856
X-21.574 Y14.211
X-21.916 Y13.557
X-22.243 Y12.896
X-22.553 Y12.226
X-22.846 Y11.549
X-23.123 Y10.865
X-23.383 Y10.175
X-23.625 Y9.478
X-23.851 Y8.775
X-24.058 Y8.067
X-24.248 Y7.355
X-24.421 Y6.637
X-24.575 Y5.916
X-24.712 Y5.191
X-24.832 Y4.463
X-24.933 Y3.732
X-25.016 Y2.999
X-25.082 Y2.264
X-25.129 Y1.528
X-25.158 Y0.79
X-25.17 Y0.053
X-25.163 Y-0.685
X-25.138 Y-1.423
X-25.096 Y-2.159
X-25.035 Y-2.895
X-24.956 Y-3.628
X-24.859 Y-4.36
X-24.745 Y-5.088
X-24.613 Y-5.814
X-24.462 Y-6.537
X-24.295 Y-7.255
X-24.109 Y-7.969
X-23.906 Y-8.678
X-23.685 Y-9.382
X-23.447 Y-10.081
X-23.192 Y-10.773
X-22.92 Y-11.459
X-22.631 Y-12.138
X-22.325 Y-12.81
X-22.004 Y-13.474
X-21.666 Y-14.13
X-21.312 Y-14.777
X-20.943 Y-15.416
X-20.558 Y-16.045
X-20.158 Y-16.665
X-19.743 Y-17.275
X-19.313 Y-17.874
X-18.868 Y-18.463
X-18.409 Y-19.041
X-17.937 Y-19.608
X-17.45 Y-20.163
X-16.95 Y-20.705
X-16.437 Y-21.236
X-15.912 Y-21.753
X-15.373 Y-22.258
X-14.823 Y-22.749
X-14.26 Y-23.226
X-13.686 Y-23.689
X-13.1 Y-24.138
X-12.504 Y-24.573
X-11.897 Y-24.992
X-11.28 Y-25.397
X-10.653 Y-25.786
X-10.017 Y-26.16
X-9.373 Y-26.519
X-8.719 Y-26.861
X-8.057 Y-27.188
X-7.388 Y-27.498
X-6.711 Y-27.792
X-6.027 Y-28.069
X-5.337 Y-28.33
X-4.641 Y-28.573
X-3.938 Y-28.8
X-3.231 Y-29.009
X-2.518 Y-29.201
X-1.802 Y-29.375
X-1.081 Y-29.532
X-0.47 Y-29.649
X-0.424 Y-29.657
X-0.377 Y-29.661
X-0.33 Y-29.662
X8.968
X9.705 Y-29.626
X10.441 Y-29.566
X11.17 Y-29.457
X11.894 Y-29.314
X12.612 Y-29.144
X13.325 Y-28.954
X14.032 Y-28.743
X14.733 Y-28.514
X15.429 Y-28.267
X16.118 Y-28.004
X16.8 Y-27.723
X17.476 Y-27.426
X18.143 Y-27.112
X18.804 Y-26.783
X19.455 Y-26.437
X20.099 Y-26.076
X20.733 Y-25.699
X21.358 Y-25.307
X21.973 Y-24.9
X22.579 Y-24.478
X23.174 Y-24.042
X23.758 Y-23.591
X24.331 Y-23.127
X24.893 Y-22.649
X25.443 Y-22.157
X25.982 Y-21.652
X26.508 Y-21.135
X27.021 Y-20.605
X27.522 Y-20.063
X28.009 Y-19.509
X28.483 Y-18.944
X28.943 Y-18.367
X29.388 Y-17.779
X29.82 Y-17.18
X30.237 Y-16.571
X30.639 Y-15.953
X31.026 Y-15.325
X31.399 Y-14.688
X31.755 Y-14.042
X32.096 Y-13.388
X32.422 Y-12.726
X32.731 Y-12.056
X33.024 Y-11.379
X33.301 Y-10.695
X33.561 Y-10.004
X33.805 Y-9.308
X34.032 Y-8.606
X34.242 Y-7.899
X34.435 Y-7.186
X34.611 Y-6.47
X34.725 Y-5.95
X34.735 Y-5.898
X34.741 Y-5.845
X34.742 Y-5.791
Y5.443
X34.706 Y6.18
X34.639 Y6.915
X34.515 Y7.642
X34.354 Y8.362
X34.166 Y9.076
X33.956 Y9.783
X33.726 Y10.484
X33.478 Y11.179
X33.213 Y11.867
X32.931 Y12.549
X32.632 Y13.224
X32.318 Y13.891
X31.987 Y14.551
X31.64 Y15.202
X31.278 Y15.845
X30.901 Y16.479
X30.508 Y17.103
X30.101 Y17.719
X29.679 Y18.324
X29.242 Y18.919
X28.792 Y19.503
X28.327 Y20.076
X27.848 Y20.637
X27.356 Y21.187
X26.851 Y21.725
X26.333 Y22.25
X25.802 Y22.763
X25.26 Y23.263
X24.705 Y23.749
X24.139 Y24.223
X23.562 Y24.682
X22.974 Y25.128
X22.375 Y25.559
X21.767 Y25.976
X21.148 Y26.379
X20.52 Y26.766
X19.883 Y27.138
X19.237 Y27.495
X18.583 Y27.836
X17.921 Y28.162
X17.251 Y28.472
X16.575 Y28.765
X15.891 Y29.042
X15.201 Y29.303
X14.504 Y29.547
X14.26 Y29.626
X14.185 Y29.646
X14.109 Y29.658
X14.032 Y29.663
X8.414
G3 X8.238 Y29.089 I0.011 J-0.317
G1 X8.295 Y29.047 Z-1.492
X8.349 Y29.008 Z-1.469
X8.397 Y28.972 Z-1.431
X8.438 Y28.942 Z-1.38
X8.468 Y28.92 Z-1.32
X8.487 Y28.906 Z-1.253
X8.494 Y28.901 Z-1.183
G0 Z5.
X34.359 Y4.416
Z-0.865
G1 Z-1.183 F1016.
X34.363 Y4.423 Z-1.253
X34.375 Y4.443 Z-1.32
X34.394 Y4.476 Z-1.38
X34.42 Y4.519 Z-1.431
X34.451 Y4.571 Z-1.469
X34.485 Y4.629 Z-1.492
X34.521 Y4.689 Z-1.5
G3 X34.742 Y5.443 I-1.36 J0.809
G1 Y9.965
X34.715 Y10.508
X34.652 Y10.99
X34.514 Y11.634
X34.303 Y12.341
X34.048 Y13.034
X33.764 Y13.715
X33.457 Y14.386
X33.132 Y15.048
X32.789 Y15.701
X32.43 Y16.346
X32.056 Y16.982
X31.668 Y17.609
X31.264 Y18.227
X30.847 Y18.835
X30.416 Y19.434
X29.97 Y20.022
X29.512 Y20.6
X29.04 Y21.167
X28.554 Y21.723
X28.056 Y22.267
X27.546 Y22.8
X27.024 Y23.321
X26.489 Y23.83
X25.943 Y24.326
X25.386 Y24.81
X24.818 Y25.28
X24.239 Y25.738
X23.649 Y26.182
X23.05 Y26.612
X22.441 Y27.028
X21.823 Y27.431
X21.195 Y27.819
X20.559 Y28.192
X19.914 Y28.551
X19.261 Y28.894
X18.6 Y29.222
X17.932 Y29.535
X17.785 Y29.6
X17.689 Y29.634
X17.589 Y29.655
X17.487 Y29.663
X14.032
G3 X13.855 Y29.089 I0.011 J-0.317
G1 X13.912 Y29.047 Z-1.492
X13.966 Y29.008 Z-1.469
X14.015 Y28.972 Z-1.431
X14.055 Y28.942 Z-1.38
X14.086 Y28.92 Z-1.32
X14.104 Y28.906 Z-1.253
X14.111 Y28.901 Z-1.183
G0 Z5.
X34.359 Y8.938
Z-0.865
G1 Z-1.183 F1016.
X34.363 Y8.945 Z-1.253
X34.375 Y8.965 Z-1.32
X34.394 Y8.998 Z-1.38
X34.42 Y9.041 Z-1.431
X34.451 Y9.093 Z-1.469
X34.485 Y9.15 Z-1.492
X34.521 Y9.211 Z-1.5
G3 X34.742 Y9.965 I-1.36 J0.809
G1 Y13.147
X34.72 Y13.604
X34.674 Y13.952
X34.579 Y14.396
X34.403 Y14.984
X34.135 Y15.671
X33.822 Y16.339
X33.478 Y16.992
X33.112 Y17.632
X32.728 Y18.262
X32.327 Y18.882
X31.912 Y19.492
X31.483 Y20.092
X31.04 Y20.682
X30.584 Y21.262
X30.115 Y21.831
X29.633 Y22.39
X29.139 Y22.938
X28.632 Y23.475
X28.114 Y24.
X27.585 Y24.514
X27.044 Y25.016
X26.492 Y25.506
X25.93 Y25.983
X25.357 Y26.448
X24.774 Y26.901
X24.181 Y27.34
X23.579 Y27.766
X22.967 Y28.178
X22.347 Y28.577
X21.717 Y28.962
X21.079 Y29.333
X20.651 Y29.57
X20.537 Y29.621
X20.416 Y29.652
X20.292 Y29.663
X17.487
G3 X17.31 Y29.089 I0.011 J-0.317
G1 X17.367 Y29.047 Z-1.492
X17.421 Y29.008 Z-1.469
X17.47 Y28.972 Z-1.431
X17.51 Y28.942 Z-1.38
X17.541 Y28.92 Z-1.32
X17.56 Y28.906 Z-1.253
X17.566 Y28.901 Z-1.183
G0 Z5.
X34.359 Y12.12
Z-0.865
G1 Z-1.183 F1016.
X34.363 Y12.127 Z-1.253
X34.375 Y12.147 Z-1.32
X34.394 Y12.18 Z-1.38
X34.42 Y12.223 Z-1.431
X34.451 Y12.275 Z-1.469
X34.485 Y12.332 Z-1.492
X34.521 Y12.393 Z-1.5
G3 X34.742 Y13.147 I-1.36 J0.809
G1 Y15.994
X34.731 Y16.217
X34.694 Y16.502
X34.616 Y16.867
X34.484 Y17.307
X34.256 Y17.893
X33.934 Y18.557
X33.569 Y19.199
X33.177 Y19.823
X32.764 Y20.435
X32.333 Y21.034
X31.888 Y21.623
X31.43 Y22.2
X30.958 Y22.768
X30.474 Y23.325
X29.978 Y23.871
X29.471 Y24.407
X28.952 Y24.931
X28.422 Y25.444
X27.881 Y25.946
X27.329 Y26.436
X26.768 Y26.915
X26.196 Y27.381
X25.614 Y27.834
X25.022 Y28.275
X24.422 Y28.704
X23.812 Y29.119
X23.193 Y29.522
X23.146 Y29.551
X23.023 Y29.612
X22.892 Y29.65
X22.755 Y29.663
X20.292
G3 X20.116 Y29.089 I0.011 J-0.317
G1 X20.173 Y29.047 Z-1.492
X20.227 Y29.008 Z-1.469
X20.275 Y28.972 Z-1.431
X20.316 Y28.942 Z-1.38
X20.346 Y28.92 Z-1.32
X20.365 Y28.906 Z-1.253
X20.372 Y28.901 Z-1.183
G0 Z5.
X34.359 Y14.967
Z-0.865
G1 Z-1.183 F1016.
X34.363 Y14.974 Z-1.253
X34.375 Y14.994 Z-1.32
X34.394 Y15.027 Z-1.38
X34.42 Y15.07 Z-1.431
X34.451 Y15.122 Z-1.469
X34.485 Y15.179 Z-1.492
X34.521 Y15.24 Z-1.5
G3 X34.742 Y15.994 I-1.36 J0.809
G1 Y18.338
X34.731 Y18.571
X34.698 Y18.823
X34.631 Y19.136
X34.521 Y19.502
X34.337 Y19.975
X34.037 Y20.594
X33.663 Y21.229
X33.252 Y21.842
X32.817 Y22.438
X32.364 Y23.021
X31.895 Y23.59
X31.413 Y24.149
X30.919 Y24.696
X30.412 Y25.233
X29.895 Y25.759
X29.366 Y26.274
X28.827 Y26.777
X28.278 Y27.27
X27.718 Y27.751
X27.149 Y28.22
X26.57 Y28.677
X25.981 Y29.123
X25.432 Y29.521
X25.298 Y29.599
X25.151 Y29.646
X24.997 Y29.663
X22.755
G3 X22.579 Y29.089 I0.011 J-0.317
G1 X22.635 Y29.047 Z-1.492
X22.69 Y29.008 Z-1.469
X22.738 Y28.972 Z-1.431
X22.779 Y28.942 Z-1.38
X22.809 Y28.92 Z-1.32
X22.828 Y28.906 Z-1.253
X22.835 Y28.901 Z-1.183
G0 Z5.
X34.359 Y17.312
Z-0.865
G1 Z-1.183 F1016.
X34.363 Y17.319 Z-1.253
X34.375 Y17.339 Z-1.32
X34.394 Y17.371 Z-1.38
X34.42 Y17.415 Z-1.431
X34.451 Y17.466 Z-1.469
X34.485 Y17.524 Z-1.492
X34.521 Y17.585 Z-1.5
G3 X34.742 Y18.338 I-1.36 J0.809
G1 Y20.516
X34.732 Y20.735
X34.701 Y20.966
X34.641 Y21.245
X34.545 Y21.567
X34.387 Y21.974
X34.138 Y22.486
X33.764 Y23.122
X33.342 Y23.728
X32.892 Y24.312
X32.42 Y24.879
X31.932 Y25.433
X31.431 Y25.974
X30.917 Y26.504
X30.392 Y27.022
X29.856 Y27.53
X29.311 Y28.026
X28.755 Y28.512
X28.19 Y28.986
X27.615 Y29.448
X27.538 Y29.508
X27.4 Y29.592
X27.246 Y29.645
X27.085 Y29.663
X24.997
G3 X24.791 Y29.113 I0.011 J-0.317
G1 X24.819 Y29.087
X34.165 Y20.335
X34.208 Y20.295
G3 X34.742 Y20.516 I0.217 J0.232
G1 Y22.525
X34.73 Y22.767
X34.701 Y22.988
X34.648 Y23.238
X34.56 Y23.532
X34.42 Y23.892
X34.206 Y24.333
X33.877 Y24.892
X33.453 Y25.495
X32.992 Y26.071
X32.507 Y26.627
X32.004 Y27.167
X31.487 Y27.694
X30.958 Y28.208
X30.418 Y28.711
X29.868 Y29.203
X29.54 Y29.484
X29.395 Y29.581
X29.231 Y29.642
X29.058 Y29.663
X27.085
G3 X26.857 Y29.124 I0. J-0.317
G1 X26.887 Y29.094
X34.02 Y21.713
G3 X34.521 Y21.772 I0.228 J0.221
X34.742 Y22.525 I-1.36 J0.809
G1 Y24.535
X34.735 Y24.688
X34.707 Y24.9
X34.659 Y25.126
X34.575 Y25.405
X34.449 Y25.729
X34.256 Y26.127
X33.971 Y26.61
X33.547 Y27.214
X33.079 Y27.784
X32.583 Y28.33
X32.067 Y28.858
X31.537 Y29.371
X31.434 Y29.466
X31.284 Y29.573
X31.114 Y29.64
X30.932 Y29.663
G3 X30.686 Y29.159 I0.011 J-0.317
G1 X30.743 Y29.079
X34.168 Y24.36
G3 X34.742 Y24.535 I0.257 J0.186
G1 Y26.377
X34.734 Y26.542
X34.71 Y26.731
X34.663 Y26.949
X34.583 Y27.217
X34.468 Y27.511
X34.29 Y27.878
X34.037 Y28.308
X33.645 Y28.866
X33.206 Y29.395
X33.045 Y29.539
X32.849 Y29.631
X32.636 Y29.663
G3 X32.375 Y29.182 I0.011 J-0.317
G1 X32.439 Y29.074
X34.153 Y26.225
G3 X34.742 Y26.377 I0.272 J0.164
G1 Y28.144
X34.734 Y28.32
X34.71 Y28.498
X34.664 Y28.713
X34.591 Y28.959
X34.506 Y29.176
X34.473 Y29.245
X34.357 Y29.417
X34.199 Y29.55
X34.011 Y29.634
X33.806 Y29.663
G3 X33.534 Y29.201 I0.011 J-0.317
G1 X33.602 Y29.069
X34.142 Y28.011
G3 X34.742 Y28.144 I0.283 J0.144
G1 Y29.35
X34.737 Y29.392
X34.727 Y29.434
X34.71 Y29.475
X34.685 Y29.517
X34.65 Y29.559
X34.616 Y29.588
X34.574 Y29.618
X34.532 Y29.639
X34.49 Y29.653
X34.448 Y29.66
X34.281 Y29.663
X29.058
G3 X28.881 Y29.089 I0.011 J-0.317
G1 X28.938 Y29.047 Z-1.492
X28.992 Y29.008 Z-1.469
X29.041 Y28.972 Z-1.431
X29.081 Y28.942 Z-1.38
X29.112 Y28.92 Z-1.32
X29.131 Y28.906 Z-1.253
X29.137 Y28.901 Z-1.183
G0 Z5.
X7.942 Y-29.279
Z-0.865
G1 Z-1.183 F1016.
X7.949 Y-29.283 Z-1.253
X7.969 Y-29.295 Z-1.32
X8.001 Y-29.314 Z-1.38
X8.045 Y-29.34 Z-1.431
X8.096 Y-29.371 Z-1.469
X8.154 Y-29.405 Z-1.492
X8.215 Y-29.441 Z-1.5
G3 X8.968 Y-29.662 I0.809 J1.36
G1 X13.83
X14.425 Y-29.633
X14.925 Y-29.567
X15.611 Y-29.42
X16.318 Y-29.209
X17.012 Y-28.958
X17.695 Y-28.679
X18.369 Y-28.379
X19.035 Y-28.06
X19.692 Y-27.725
X20.34 Y-27.373
X20.98 Y-27.006
X21.611 Y-26.623
X22.233 Y-26.227
X22.846 Y-25.815
X23.449 Y-25.39
X24.042 Y-24.951
X24.624 Y-24.498
X25.196 Y-24.032
X25.757 Y-23.553
X26.307 Y-23.061
X26.845 Y-22.556
X27.371 Y-22.039
X27.886 Y-21.51
X28.388 Y-20.969
X28.877 Y-20.417
X29.353 Y-19.853
X29.815 Y-19.278
X30.265 Y-18.693
X30.7 Y-18.098
X31.122 Y-17.492
X31.53 Y-16.877
X31.923 Y-16.253
X32.302 Y-15.62
X32.667 Y-14.979
X33.016 Y-14.329
X33.35 Y-13.671
X33.669 Y-13.006
X33.973 Y-12.333
X34.261 Y-11.654
X34.534 Y-10.968
X34.696 Y-10.53
X34.722 Y-10.446
X34.737 Y-10.36
X34.742 Y-10.272
Y-5.791
G3 X34.169 Y-5.614 I-0.317 J-0.011
G1 X34.127 Y-5.671 Z-1.492
X34.088 Y-5.725 Z-1.469
X34.052 Y-5.774 Z-1.431
X34.022 Y-5.814 Z-1.38
X34. Y-5.845 Z-1.32
X33.986 Y-5.864 Z-1.253
X33.981 Y-5.87 Z-1.183
G0 Z5.
X12.803 Y-29.279
Z-0.865
G1 Z-1.183 F1016.
X12.81 Y-29.283 Z-1.253
X12.83 Y-29.295 Z-1.32
X12.863 Y-29.314 Z-1.38
X12.906 Y-29.34 Z-1.431
X12.958 Y-29.371 Z-1.469
X13.015 Y-29.405 Z-1.492
X13.076 Y-29.441 Z-1.5
G3 X13.83 Y-29.662 I0.809 J1.36
G1 X17.182
X17.589 Y-29.642
X17.95 Y-29.595
X18.411 Y-29.496
X19.025 Y-29.312
X19.713 Y-29.044
X20.382 Y-28.734
X21.037 Y-28.394
X21.68 Y-28.032
X22.313 Y-27.653
X22.936 Y-27.258
X23.549 Y-26.848
X24.153 Y-26.423
X24.746 Y-25.986
X25.33 Y-25.534
X25.903 Y-25.07
X26.466 Y-24.593
X27.018 Y-24.103
X27.559 Y-23.602
X28.089 Y-23.088
X28.607 Y-22.563
X29.114 Y-22.026
X29.608 Y-21.478
X30.089 Y-20.919
X30.559 Y-20.35
X31.015 Y-19.77
X31.458 Y-19.18
X31.888 Y-18.581
X32.305 Y-17.972
X32.708 Y-17.354
X33.097 Y-16.727
X33.473 Y-16.092
X33.834 Y-15.449
X34.181 Y-14.797
X34.513 Y-14.139
X34.67 Y-13.809
X34.71 Y-13.706
X34.734 Y-13.599
X34.742 Y-13.49
Y-10.272
G3 X34.169 Y-10.095 I-0.317 J-0.011
G1 X34.127 Y-10.152 Z-1.492
X34.088 Y-10.206 Z-1.469
X34.052 Y-10.255 Z-1.431
X34.022 Y-10.295 Z-1.38
X34. Y-10.326 Z-1.32
X33.986 Y-10.345 Z-1.253
X33.981 Y-10.351 Z-1.183
G0 Z5.
X16.156 Y-29.279
Z-0.865
G1 Z-1.183 F1016.
X16.163 Y-29.283 Z-1.253
X16.183 Y-29.295 Z-1.32
X16.215 Y-29.314 Z-1.38
X16.259 Y-29.34 Z-1.431
X16.31 Y-29.371 Z-1.469
X16.368 Y-29.405 Z-1.492
X16.429 Y-29.441 Z-1.5
G3 X17.182 Y-29.662 I0.809 J1.36
G1 X20.032
X20.256 Y-29.651
X20.546 Y-29.613
X20.92 Y-29.533
X21.374 Y-29.397
X21.982 Y-29.161
X22.646 Y-28.839
X23.288 Y-28.476
X23.915 Y-28.087
X24.529 Y-27.677
X25.131 Y-27.251
X25.722 Y-26.81
X26.303 Y-26.355
X26.874 Y-25.887
X27.434 Y-25.407
X27.983 Y-24.915
X28.522 Y-24.411
X29.05 Y-23.895
X29.567 Y-23.369
X30.072 Y-22.831
X30.566 Y-22.283
X31.048 Y-21.724
X31.517 Y-21.155
X31.974 Y-20.575
X32.419 Y-19.986
X32.85 Y-19.388
X33.269 Y-18.781
X33.675 Y-18.164
X34.067 Y-17.539
X34.446 Y-16.906
X34.645 Y-16.557
X34.699 Y-16.44
X34.731 Y-16.317
X34.742 Y-16.19
Y-13.49
G3 X34.169 Y-13.313 I-0.317 J-0.011
G1 X34.127 Y-13.37 Z-1.492
X34.088 Y-13.424 Z-1.469
X34.052 Y-13.473 Z-1.431
X34.022 Y-13.513 Z-1.38
X34. Y-13.544 Z-1.32
X33.986 Y-13.563 Z-1.253
X33.981 Y-13.569 Z-1.183
G0 Z5.
X19.006 Y-29.279
Z-0.865
G1 Z-1.183 F1016.
X19.012 Y-29.283 Z-1.253
X19.033 Y-29.295 Z-1.32
X19.065 Y-29.314 Z-1.38
X19.108 Y-29.34 Z-1.431
X19.16 Y-29.371 Z-1.469
X19.218 Y-29.405 Z-1.492
X19.278 Y-29.441 Z-1.5
G3 X20.032 Y-29.662 I0.809 J1.36
G1 X22.379
X22.644 Y-29.649
X22.899 Y-29.616
X23.218 Y-29.547
X23.591 Y-29.436
X24.076 Y-29.247
X24.714 Y-28.937
X25.35 Y-28.563
X25.964 Y-28.154
X26.562 Y-27.721
X27.146 Y-27.271
X27.719 Y-26.805
X28.28 Y-26.326
X28.83 Y-25.835
X29.37 Y-25.332
X29.899 Y-24.817
X30.416 Y-24.291
X30.923 Y-23.755
X31.418 Y-23.208
X31.902 Y-22.651
X32.374 Y-22.084
X32.834 Y-21.507
X33.282 Y-20.921
X33.718 Y-20.326
X34.142 Y-19.722
X34.552 Y-19.109
X34.625 Y-18.995
X34.69 Y-18.87
X34.729 Y-18.735
X34.742 Y-18.595
Y-16.19
G3 X34.169 Y-16.013 I-0.317 J-0.011
G1 X34.127 Y-16.07 Z-1.492
X34.088 Y-16.124 Z-1.469
X34.052 Y-16.173 Z-1.431
X34.022 Y-16.213 Z-1.38
X34. Y-16.244 Z-1.32
X33.986 Y-16.262 Z-1.253
X33.981 Y-16.269 Z-1.183
G0 Z5.
X21.352 Y-29.279
Z-0.865
G1 Z-1.183 F1016.
X21.359 Y-29.283 Z-1.253
X21.379 Y-29.295 Z-1.32
X21.412 Y-29.314 Z-1.38
X21.455 Y-29.34 Z-1.431
X21.507 Y-29.371 Z-1.469
X21.565 Y-29.405 Z-1.492
X21.625 Y-29.441 Z-1.5
G3 X22.379 Y-29.662 I0.809 J1.36
G1 X24.558
X24.831 Y-29.649
X25.065 Y-29.618
X25.348 Y-29.558
X25.674 Y-29.46
X26.089 Y-29.298
X26.614 Y-29.044
X27.25 Y-28.669
X27.857 Y-28.249
X28.443 Y-27.801
X29.012 Y-27.332
X29.568 Y-26.847
X30.112 Y-26.348
X30.644 Y-25.837
X31.166 Y-25.315
X31.676 Y-24.782
X32.175 Y-24.239
X32.663 Y-23.686
X33.14 Y-23.123
X33.605 Y-22.55
X34.059 Y-21.968
X34.501 Y-21.378
X34.604 Y-21.235
X34.68 Y-21.102
X34.727 Y-20.955
X34.742 Y-20.803
Y-18.595
G3 X34.192 Y-18.391 I-0.317 J-0.011
G1 X34.168 Y-18.417
X23.831 Y-29.622
X23.799 Y-29.646
X23.76 Y-29.659
X23.719 Y-29.657
X23.682 Y-29.642
X23.652 Y-29.615
X23.633 Y-29.579
X23.627 Y-29.539
X23.635 Y-29.499
X23.656 Y-29.465
X23.688 Y-29.439
X23.726 Y-29.426
X23.767 Y-29.427
X23.804 Y-29.441
G3 X24.558 Y-29.662 I0.809 J1.36
G1 X26.737
X26.887 Y-29.655
X27.114 Y-29.623
X27.371 Y-29.566
X27.677 Y-29.472
X28.049 Y-29.323
X28.514 Y-29.093
X29.105 Y-28.739
X29.705 Y-28.31
X30.28 Y-27.847
X30.835 Y-27.361
X31.376 Y-26.859
X31.903 Y-26.343
X32.418 Y-25.815
X32.922 Y-25.276
X33.415 Y-24.727
X33.897 Y-24.168
X34.367 Y-23.6
X34.581 Y-23.33
X34.669 Y-23.19
X34.724 Y-23.034
X34.742 Y-22.869
Y-20.803
G3 X34.199 Y-20.58 I-0.318 J0.
G1 X34.174 Y-20.605
X25.92 Y-28.945
G3 X25.984 Y-29.441 I0.226 J-0.223
X26.737 Y-29.662 I0.809 J1.36
G1 X28.581
X28.818 Y-29.651
X29.031 Y-29.623
X29.262 Y-29.573
X29.539 Y-29.49
X29.872 Y-29.361
X30.269 Y-29.168
X30.765 Y-28.876
X31.368 Y-28.452
X31.939 Y-27.985
X32.487 Y-27.49
X33.017 Y-26.977
X33.532 Y-26.448
X34.034 Y-25.908
X34.524 Y-25.357
X34.565 Y-25.309
X34.662 Y-25.164
X34.722 Y-25.
X34.742 Y-24.828
G3 X34.231 Y-24.587 I-0.317 J-0.011
G1 X34.161 Y-24.642
X28.404 Y-29.089
X28.398 Y-29.094
G3 X28.581 Y-29.662 I0.194 J-0.251
G1 X30.425
X30.682 Y-29.65
X30.873 Y-29.625
X31.092 Y-29.578
X31.362 Y-29.497
X31.659 Y-29.381
X32.031 Y-29.201
X32.467 Y-28.944
X33.036 Y-28.544
X33.604 Y-28.073
X34.144 Y-27.57
X34.528 Y-27.182
X34.644 Y-27.029
X34.718 Y-26.851
X34.742 Y-26.661
G3 X34.248 Y-26.408 I-0.317 J-0.011
G1 X34.157 Y-26.47
X30.259 Y-29.081
G3 X30.425 Y-29.662 I0.177 J-0.264
G1 X32.269
X32.467 Y-29.653
X32.645 Y-29.629
X32.86 Y-29.583
X33.118 Y-29.506
X33.394 Y-29.398
X33.743 Y-29.229
X34.138 Y-28.997
X34.428 Y-28.793
X34.559 Y-28.675
X34.659 Y-28.529
X34.721 Y-28.363
X34.742 Y-28.187
G3 X34.275 Y-27.918 I-0.317 J-0.011
G1 X34.15 Y-27.985
X32.13 Y-29.065
G3 X32.269 Y-29.662 I0.15 J-0.28
G1 X33.945
X34.129 Y-29.653
X34.324 Y-29.598
X34.495 Y-29.49
X34.629 Y-29.338
X34.713 Y-29.154
X34.742 Y-28.954
G3 X34.225 Y-28.719 I-0.317 J-0.011
G1 X34.162 Y-28.77
X33.768 Y-29.089
X33.757 Y-29.099
G3 X33.945 Y-29.662 I0.2 J-0.247
G1 X34.281
X34.448 Y-29.66
X34.49 Y-29.653
X34.532 Y-29.639
X34.574 Y-29.618
X34.616 Y-29.588
X34.65 Y-29.559
X34.685 Y-29.517
X34.71 Y-29.475
X34.727 Y-29.434
X34.737 Y-29.392
X34.742 Y-29.35
Y-22.869
G3 X34.169 Y-22.693 I-0.317 J-0.011
G1 X34.127 Y-22.749 Z-1.492
X34.088 Y-22.804 Z-1.469
X34.052 Y-22.852 Z-1.431
X34.022 Y-22.893 Z-1.38
X34. Y-22.923 Z-1.32
X33.986 Y-22.942 Z-1.253
X33.981 Y-22.948 Z-1.183
G0 Z5.
X3.122 Y29.279
Z-0.865
G1 Z-1.183 F1016.
X3.115 Y29.283 Z-1.253
X3.095 Y29.295 Z-1.32
X3.062 Y29.314 Z-1.38
X3.019 Y29.34 Z-1.431
X2.967 Y29.371 Z-1.469
X2.91 Y29.405 Z-1.492
X2.849 Y29.441 Z-1.5
G3 X2.095 Y29.663 I-0.809 J-1.36
G1 X-3.436
X-4.063 Y29.631
X-4.608 Y29.56
X-5.33 Y29.405
X-6.037 Y29.197
X-6.734 Y28.953
X-7.42 Y28.683
X-8.099 Y28.392
X-8.768 Y28.083
X-9.43 Y27.757
X-10.084 Y27.414
X-10.729 Y27.056
X-11.365 Y26.683
X-11.992 Y26.294
X-12.61 Y25.891
X-13.218 Y25.473
X-13.816 Y25.04
X-14.403 Y24.594
X-14.98 Y24.133
X-15.545 Y23.659
X-16.099 Y23.172
X-16.641 Y22.672
X-17.172 Y22.159
X-17.689 Y21.633
X-18.195 Y21.096
X-18.687 Y20.546
X-19.166 Y19.985
X-19.632 Y19.413
X-20.084 Y18.829
X-20.522 Y18.236
X-20.946 Y17.632
X-21.356 Y17.019
X-21.751 Y16.396
X-22.132 Y15.763
X-22.497 Y15.123
X-22.848 Y14.473
X-23.183 Y13.816
X-23.502 Y13.151
X-23.806 Y12.478
X-24.093 Y11.799
X-24.365 Y11.113
X-24.62 Y10.421
X-24.859 Y9.723
X-25.081 Y9.019
X-25.286 Y8.31
X-25.475 Y7.597
X-25.646 Y6.879
X-25.801 Y6.158
X-25.939 Y5.433
X-26.059 Y4.705
X-26.162 Y3.974
X-26.247 Y3.242
X-26.316 Y2.507
X-26.367 Y1.771
X-26.4 Y1.034
X-26.417 Y0.296
X-26.416 Y-0.442
X-26.398 Y-1.179
X-26.362 Y-1.916
X-26.309 Y-2.652
X-26.239 Y-3.387
X-26.152 Y-4.119
X-26.048 Y-4.85
X-25.926 Y-5.577
X-25.788 Y-6.302
X-25.632 Y-7.023
X-25.459 Y-7.741
X-25.27 Y-8.454
X-25.063 Y-9.162
X-24.84 Y-9.865
X-24.6 Y-10.563
X-24.344 Y-11.255
X-24.072 Y-11.941
X-23.784 Y-12.62
X-23.48 Y-13.292
X-23.159 Y-13.957
X-22.823 Y-14.614
X-22.472 Y-15.262
X-22.106 Y-15.903
X-21.724 Y-16.535
X-21.328 Y-17.157
X-20.918 Y-17.77
X-20.493 Y-18.374
X-20.055 Y-18.967
X-19.602 Y-19.55
X-19.136 Y-20.122
X-18.657 Y-20.682
X-18.165 Y-21.232
X-17.66 Y-21.77
X-17.142 Y-22.296
X-16.612 Y-22.809
X-16.071 Y-23.31
X-15.517 Y-23.798
X-14.952 Y-24.273
X-14.376 Y-24.734
X-13.79 Y-25.182
X-13.193 Y-25.615
X-12.586 Y-26.034
X-11.969 Y-26.44
X-11.343 Y-26.83
X-10.708 Y-27.205
X-10.064 Y-27.565
X-9.412 Y-27.91
X-8.751 Y-28.24
X-8.084 Y-28.554
X-7.409 Y-28.852
X-6.727 Y-29.135
X-6.039 Y-29.401
X-5.436 Y-29.619
X-5.354 Y-29.643
X-5.27 Y-29.658
X-5.184 Y-29.662
X-0.33
G3 X-0.154 Y-29.089 I-0.011 J0.317
G1 X-0.211 Y-29.047 Z-1.492
X-0.265 Y-29.008 Z-1.469
X-0.313 Y-28.972 Z-1.431
X-0.354 Y-28.942 Z-1.38
X-0.384 Y-28.92 Z-1.32
X-0.403 Y-28.906 Z-1.253
X-0.41 Y-28.901 Z-1.183
G0 Z5.
X-2.41 Y29.279
Z-0.865
G1 Z-1.183 F1016.
X-2.417 Y29.283 Z-1.253
X-2.437 Y29.295 Z-1.32
X-2.47 Y29.314 Z-1.38
X-2.513 Y29.34 Z-1.431
X-2.564 Y29.371 Z-1.469
X-2.622 Y29.405 Z-1.492
X-2.683 Y29.441 Z-1.5
G3 X-3.436 Y29.663 I-0.809 J-1.36
G1 X-6.957
X-7.35 Y29.643
X-7.73 Y29.593
X-8.213 Y29.49
X-8.864 Y29.295
X-9.551 Y29.027
X-10.222 Y28.719
X-10.879 Y28.385
X-11.526 Y28.029
X-12.162 Y27.655
X-12.788 Y27.265
X-13.405 Y26.86
X-14.012 Y26.441
X-14.609 Y26.007
X-15.196 Y25.56
X-15.772 Y25.1
X-16.338 Y24.626
X-16.893 Y24.14
X-17.436 Y23.64
X-17.968 Y23.129
X-18.488 Y22.605
X-18.996 Y22.07
X-19.491 Y21.523
X-19.974 Y20.965
X-20.444 Y20.397
X-20.901 Y19.817
X-21.344 Y19.228
X-21.775 Y18.629
X-22.191 Y18.02
X-22.594 Y17.401
X-22.983 Y16.774
X-23.357 Y16.139
X-23.717 Y15.495
X-24.063 Y14.843
X-24.393 Y14.183
X-24.709 Y13.516
X-25.009 Y12.842
X-25.294 Y12.162
X-25.564 Y11.475
X-25.818 Y10.782
X-26.056 Y10.084
X-26.278 Y9.38
X-26.483 Y8.672
X-26.673 Y7.958
X-26.846 Y7.241
X-27.003 Y6.52
X-27.143 Y5.796
X-27.267 Y5.069
X-27.374 Y4.339
X-27.464 Y3.606
X-27.538 Y2.872
X-27.595 Y2.137
X-27.636 Y1.4
X-27.66 Y0.662
X-27.667 Y-0.075
X-27.658 Y-0.813
X-27.632 Y-1.55
X-27.589 Y-2.287
X-27.53 Y-3.023
X-27.455 Y-3.756
X-27.363 Y-4.488
X-27.254 Y-5.218
X-27.129 Y-5.945
X-26.987 Y-6.67
X-26.83 Y-7.39
X-26.655 Y-8.107
X-26.465 Y-8.82
X-26.258 Y-9.528
X-26.036 Y-10.232
X-25.797 Y-10.93
X-25.543 Y-11.622
X-25.272 Y-12.309
X-24.986 Y-12.989
X-24.685 Y-13.663
X-24.369 Y-14.329
X-24.037 Y-14.988
X-23.691 Y-15.64
X-23.33 Y-16.283
X-22.954 Y-16.918
X-22.564 Y-17.545
X-22.161 Y-18.162
X-21.743 Y-18.771
X-21.312 Y-19.37
X-20.868 Y-19.959
X-20.41 Y-20.537
X-19.94 Y-21.106
X-19.457 Y-21.663
X-18.961 Y-22.21
X-18.454 Y-22.746
X-17.934 Y-23.269
X-17.403 Y-23.781
X-16.86 Y-24.281
X-16.306 Y-24.768
X-15.741 Y-25.243
X-15.165 Y-25.704
X-14.579 Y-26.153
X-13.983 Y-26.587
X-13.377 Y-27.008
X-12.762 Y-27.416
X-12.138 Y-27.809
X-11.505 Y-28.188
X-10.863 Y-28.552
X-10.213 Y-28.902
X-9.556 Y-29.237
X-8.891 Y-29.557
X-8.804 Y-29.596
X-8.705 Y-29.633
X-8.603 Y-29.655
X-8.498 Y-29.662
X-5.184
G3 X-5.008 Y-29.089 I-0.011 J0.317
G1 X-5.065 Y-29.047 Z-1.492
X-5.119 Y-29.008 Z-1.469
X-5.167 Y-28.972 Z-1.431
X-5.208 Y-28.942 Z-1.38
X-5.238 Y-28.92 Z-1.32
X-5.257 Y-28.906 Z-1.253
X-5.264 Y-28.901 Z-1.183
G0 Z5.
X-5.93 Y29.279
Z-0.865
G1 Z-1.183 F1016.
X-5.937 Y29.283 Z-1.253
X-5.957 Y29.295 Z-1.32
X-5.99 Y29.314 Z-1.38
X-6.033 Y29.34 Z-1.431
X-6.085 Y29.371 Z-1.469
X-6.142 Y29.405 Z-1.492
X-6.203 Y29.441 Z-1.5
G3 X-6.957 Y29.663 I-0.809 J-1.36
G1 X-9.806
X-10.087 Y29.648
X-10.386 Y29.609
X-10.77 Y29.527
X-11.242 Y29.386
X-11.875 Y29.139
X-12.538 Y28.817
X-13.182 Y28.457
X-13.811 Y28.071
X-14.427 Y27.664
X-15.031 Y27.241
X-15.625 Y26.803
X-16.208 Y26.351
X-16.781 Y25.886
X-17.343 Y25.408
X-17.894 Y24.918
X-18.435 Y24.415
X-18.964 Y23.901
X-19.481 Y23.375
X-19.987 Y22.838
X-20.481 Y22.29
X-20.963 Y21.732
X-21.433 Y21.162
X-21.89 Y20.583
X-22.334 Y19.994
X-22.765 Y19.395
X-23.183 Y18.787
X-23.588 Y18.17
X-23.978 Y17.545
X-24.356 Y16.911
X-24.719 Y16.268
X-25.068 Y15.619
X-25.404 Y14.961
X-25.724 Y14.297
X-26.031 Y13.626
X-26.322 Y12.948
X-26.599 Y12.264
X-26.86 Y11.574
X-27.107 Y10.878
X-27.338 Y10.178
X-27.554 Y9.472
X-27.754 Y8.762
X-27.938 Y8.048
X-28.107 Y7.329
X-28.26 Y6.608
X-28.397 Y5.883
X-28.518 Y5.155
X-28.623 Y4.425
X-28.713 Y3.692
X-28.786 Y2.958
X-28.843 Y2.222
X-28.884 Y1.486
X-28.909 Y0.748
X-28.918 Y0.011
X-28.911 Y-0.727
X-28.888 Y-1.465
X-28.848 Y-2.201
X-28.793 Y-2.937
X-28.722 Y-3.671
X-28.635 Y-4.404
X-28.532 Y-5.135
X-28.413 Y-5.863
X-28.279 Y-6.588
X-28.128 Y-7.311
X-27.962 Y-8.03
X-27.78 Y-8.745
X-27.583 Y-9.456
X-27.37 Y-10.162
X-27.142 Y-10.864
X-26.898 Y-11.56
X-26.64 Y-12.251
X-26.366 Y-12.936
X-26.077 Y-13.615
X-25.773 Y-14.287
X-25.455 Y-14.953
X-25.122 Y-15.612
X-24.775 Y-16.263
X-24.414 Y-16.906
X-24.039 Y-17.542
X-23.65 Y-18.169
X-23.248 Y-18.787
X-22.832 Y-19.397
X-22.403 Y-19.997
X-21.962 Y-20.588
X-21.507 Y-21.169
X-21.04 Y-21.74
X-20.561 Y-22.301
X-20.069 Y-22.852
X-19.566 Y-23.391
X-19.052 Y-23.92
X-18.526 Y-24.437
X-17.988 Y-24.943
X-17.44 Y-25.437
X-16.881 Y-25.919
X-16.312 Y-26.388
X-15.733 Y-26.845
X-15.144 Y-27.289
X-14.545 Y-27.72
X-13.937 Y-28.138
X-13.32 Y-28.543
X-12.694 Y-28.934
X-12.06 Y-29.311
X-11.607 Y-29.567
X-11.492 Y-29.619
X-11.369 Y-29.652
X-11.243 Y-29.662
X-8.498
G3 X-8.321 Y-29.089 I-0.011 J0.317
G1 X-8.378 Y-29.047 Z-1.492
X-8.432 Y-29.008 Z-1.469
X-8.481 Y-28.972 Z-1.431
X-8.521 Y-28.942 Z-1.38
X-8.552 Y-28.92 Z-1.32
X-8.571 Y-28.906 Z-1.253
X-8.577 Y-28.901 Z-1.183
G0 Z5.
X-8.78 Y29.279
Z-0.865
G1 Z-1.183 F1016.
X-8.787 Y29.283 Z-1.253
X-8.807 Y29.295 Z-1.32
X-8.84 Y29.314 Z-1.38
X-8.883 Y29.34 Z-1.431
X-8.934 Y29.371 Z-1.469
X-8.992 Y29.405 Z-1.492
X-9.053 Y29.441 Z-1.5
G3 X-9.806 Y29.663 I-0.809 J-1.36
G1 X-12.321
X-12.501 Y29.654
X-12.759 Y29.62
X-13.086 Y29.55
X-13.467 Y29.435
X-13.966 Y29.241
X-14.624 Y28.922
X-15.26 Y28.548
X-15.875 Y28.14
X-16.474 Y27.71
X-17.06 Y27.261
X-17.634 Y26.798
X-18.197 Y26.32
X-18.748 Y25.831
X-19.289 Y25.329
X-19.819 Y24.815
X-20.338 Y24.29
X-20.845 Y23.754
X-21.34 Y23.208
X-21.824 Y22.651
X-22.296 Y22.084
X-22.756 Y21.507
X-23.204 Y20.92
X-23.639 Y20.325
X-24.062 Y19.72
X-24.471 Y19.106
X-24.868 Y18.484
X-25.252 Y17.854
X-25.622 Y17.216
X-25.979 Y16.57
X-26.322 Y15.917
X-26.651 Y15.257
X-26.967 Y14.59
X-27.268 Y13.916
X-27.556 Y13.237
X-27.828 Y12.551
X-28.087 Y11.86
X-28.331 Y11.164
X-28.56 Y10.462
X-28.774 Y9.756
X-28.973 Y9.046
X-29.157 Y8.331
X-29.326 Y7.613
X-29.48 Y6.891
X-29.618 Y6.167
X-29.741 Y5.439
X-29.848 Y4.709
X-29.94 Y3.977
X-30.016 Y3.243
X-30.077 Y2.508
X-30.123 Y1.772
X-30.153 Y1.034
X-30.167 Y0.297
X-30.166 Y-0.441
X-30.15 Y-1.179
X-30.118 Y-1.916
X-30.07 Y-2.652
X-30.008 Y-3.387
X-29.929 Y-4.121
X-29.836 Y-4.853
X-29.727 Y-5.583
X-29.603 Y-6.31
X-29.464 Y-7.035
X-29.31 Y-7.756
X-29.141 Y-8.474
X-28.956 Y-9.189
X-28.757 Y-9.899
X-28.542 Y-10.605
X-28.313 Y-11.306
X-28.069 Y-12.002
X-27.81 Y-12.693
X-27.537 Y-13.379
X-27.249 Y-14.058
X-26.947 Y-14.731
X-26.631 Y-15.398
X-26.3 Y-16.057
X-25.956 Y-16.71
X-25.598 Y-17.355
X-25.227 Y-17.993
X-24.843 Y-18.623
X-24.445 Y-19.244
X-24.034 Y-19.857
X-23.611 Y-20.461
X-23.175 Y-21.057
X-22.726 Y-21.643
X-22.266 Y-22.219
X-21.794 Y-22.786
X-21.31 Y-23.343
X-20.814 Y-23.889
X-20.307 Y-24.425
X-19.789 Y-24.951
X-19.26 Y-25.465
X-18.72 Y-25.968
X-18.17 Y-26.46
X-17.61 Y-26.94
X-17.04 Y-27.408
X-16.46 Y-27.864
X-15.87 Y-28.308
X-15.272 Y-28.739
X-14.664 Y-29.158
X-14.082 Y-29.541
X-13.955 Y-29.607
X-13.817 Y-29.649
X-13.675 Y-29.662
X-11.243
G3 X-11.066 Y-29.089 I-0.011 J0.317
G1 X-11.123 Y-29.047 Z-1.492
X-11.177 Y-29.008 Z-1.469
X-11.226 Y-28.972 Z-1.431
X-11.266 Y-28.942 Z-1.38
X-11.297 Y-28.92 Z-1.32
X-11.316 Y-28.906 Z-1.253
X-11.322 Y-28.901 Z-1.183
G0 Z5.
X-11.294 Y29.279
Z-0.865
G1 Z-1.183 F1016.
X-11.301 Y29.283 Z-1.253
X-11.321 Y29.295 Z-1.32
X-11.354 Y29.314 Z-1.38
X-11.397 Y29.34 Z-1.431
X-11.449 Y29.371 Z-1.469
X-11.507 Y29.405 Z-1.492
X-11.567 Y29.441 Z-1.5
G3 X-12.321 Y29.663 I-0.809 J-1.36
G1 X-14.5
X-14.714 Y29.652
X-14.949 Y29.621
X-15.237 Y29.559
X-15.567 Y29.46
X-15.989 Y29.296
X-16.525 Y29.036
X-17.161 Y28.662
X-17.768 Y28.243
X-18.355 Y27.796
X-18.926 Y27.328
X-19.483 Y26.845
X-20.028 Y26.348
X-20.561 Y25.838
X-21.083 Y25.316
X-21.594 Y24.784
X-22.094 Y24.241
X-22.582 Y23.688
X-23.059 Y23.125
X-23.525 Y22.553
X-23.978 Y21.971
X-24.42 Y21.38
X-24.849 Y20.78
X-25.266 Y20.171
X-25.671 Y19.554
X-26.063 Y18.929
X-26.443 Y18.297
X-26.809 Y17.656
X-27.163 Y17.009
X-27.503 Y16.354
X-27.83 Y15.693
X-28.144 Y15.025
X-28.444 Y14.351
X-28.73 Y13.671
X-29.003 Y12.985
X-29.261 Y12.294
X-29.506 Y11.598
X-29.736 Y10.897
X-29.951 Y10.191
X-30.152 Y9.481
X-30.339 Y8.768
X-30.511 Y8.05
X-30.668 Y7.329
X-30.81 Y6.605
X-30.921 Y5.968
X-30.928 Y5.926
X-30.931 Y5.883
X-30.933 Y5.841
Y-4.606
X-30.896 Y-5.342
X-30.844 Y-6.078
X-30.747 Y-6.81
X-30.619 Y-7.536
X-30.468 Y-8.259
X-30.299 Y-8.977
X-30.113 Y-9.691
X-29.912 Y-10.401
X-29.695 Y-11.106
X-29.464 Y-11.807
X-29.218 Y-12.502
X-28.959 Y-13.193
X-28.685 Y-13.878
X-28.397 Y-14.558
X-28.095 Y-15.231
X-27.78 Y-15.898
X-27.451 Y-16.558
X-27.108 Y-17.212
X-26.753 Y-17.858
X-26.384 Y-18.497
X-26.002 Y-19.128
X-25.608 Y-19.752
X-25.201 Y-20.367
X-24.781 Y-20.974
X-24.35 Y-21.573
X-23.906 Y-22.163
X-23.451 Y-22.743
X-22.984 Y-23.314
X-22.506 Y-23.876
X-22.016 Y-24.428
X-21.516 Y-24.97
X-21.004 Y-25.502
X-20.482 Y-26.024
X-19.95 Y-26.534
X-19.407 Y-27.034
X-18.855 Y-27.523
X-18.292 Y-28.001
X-17.72 Y-28.467
X-17.139 Y-28.921
X-16.548 Y-29.363
X-16.325 Y-29.524
X-16.191 Y-29.6
X-16.045 Y-29.647
X-15.893 Y-29.662
X-13.675
G3 X-13.498 Y-29.089 I-0.011 J0.317
G1 X-13.555 Y-29.047 Z-1.492
X-13.609 Y-29.008 Z-1.469
X-13.657 Y-28.972 Z-1.431
X-13.698 Y-28.942 Z-1.38
X-13.729 Y-28.92 Z-1.32
X-13.747 Y-28.906 Z-1.253
X-13.754 Y-28.901 Z-1.183
G0 Z5.
X-30.549 Y-3.579
Z-0.865
G1 Z-1.183 F1016.
X-30.553 Y-3.586 Z-1.253
X-30.565 Y-3.606 Z-1.32
X-30.584 Y-3.639 Z-1.38
X-30.61 Y-3.682 Z-1.431
X-30.641 Y-3.734 Z-1.469
X-30.675 Y-3.791 Z-1.492
X-30.711 Y-3.852 Z-1.5
G3 X-30.933 Y-4.606 I1.36 J-0.809
G1 Y-9.965
X-30.901 Y-10.593
X-30.825 Y-11.176
X-30.67 Y-11.898
X-30.467 Y-12.607
X-30.232 Y-13.306
X-29.975 Y-13.998
X-29.699 Y-14.682
X-29.407 Y-15.36
X-29.101 Y-16.031
X-28.781 Y-16.696
X-28.448 Y-17.354
X-28.101 Y-18.006
X-27.742 Y-18.65
X-27.37 Y-19.287
X-26.986 Y-19.917
X-26.589 Y-20.539
X-26.18 Y-21.153
X-25.76 Y-21.76
X-25.327 Y-22.357
X-24.883 Y-22.947
X-24.428 Y-23.527
X-23.961 Y-24.099
X-23.484 Y-24.661
X-22.995 Y-25.214
X-22.496 Y-25.757
X-21.986 Y-26.29
X-21.466 Y-26.814
X-20.935 Y-27.327
X-20.395 Y-27.829
X-19.845 Y-28.321
X-19.285 Y-28.802
X-18.717 Y-29.272
X-18.426 Y-29.502
X-18.286 Y-29.59
X-18.13 Y-29.644
X-17.966 Y-29.662
X-15.893
G3 X-15.716 Y-29.089 I-0.011 J0.317
G1 X-15.773 Y-29.047 Z-1.492
X-15.827 Y-29.008 Z-1.469
X-15.875 Y-28.972 Z-1.431
X-15.916 Y-28.942 Z-1.38
X-15.946 Y-28.92 Z-1.32
X-15.965 Y-28.906 Z-1.253
X-15.972 Y-28.901 Z-1.183
G0 Z5.
X-30.549 Y-8.938
Z-0.865
G1 Z-1.183 F1016.
X-30.553 Y-8.945 Z-1.253
X-30.565 Y-8.965 Z-1.32
X-30.584 Y-8.998 Z-1.38
X-30.61 Y-9.041 Z-1.431
X-30.641 Y-9.093 Z-1.469
X-30.675 Y-9.15 Z-1.492
X-30.711 Y-9.211 Z-1.5
G3 X-30.933 Y-9.965 I1.36 J-0.809
G1 Y-13.649
X-30.913 Y-14.031
X-30.859 Y-14.449
X-30.744 Y-14.987
X-30.532 Y-15.693
X-30.268 Y-16.382
X-29.971 Y-17.058
X-29.652 Y-17.723
X-29.315 Y-18.379
X-28.963 Y-19.028
X-28.597 Y-19.669
X-28.219 Y-20.302
X-27.828 Y-20.928
X-27.425 Y-21.546
X-27.011 Y-22.156
X-26.585 Y-22.759
X-26.147 Y-23.353
X-25.699 Y-23.939
X-25.239 Y-24.516
X-24.769 Y-25.085
X-24.288 Y-25.644
X-23.797 Y-26.194
X-23.295 Y-26.735
X-22.783 Y-27.267
X-22.261 Y-27.788
X-21.729 Y-28.3
X-21.188 Y-28.801
X-20.638 Y-29.292
X-20.414 Y-29.484
X-20.269 Y-29.581
X-20.105 Y-29.642
X-19.932 Y-29.662
X-17.966
G3 X-17.789 Y-29.089 I-0.011 J0.317
G1 X-17.846 Y-29.047 Z-1.492
X-17.9 Y-29.008 Z-1.469
X-17.949 Y-28.972 Z-1.431
X-17.989 Y-28.942 Z-1.38
X-18.02 Y-28.92 Z-1.32
X-18.039 Y-28.906 Z-1.253
X-18.045 Y-28.901 Z-1.183
G0 Z5.
X-30.549 Y-12.623
Z-0.865
G1 Z-1.183 F1016.
X-30.553 Y-12.63 Z-1.253
X-30.565 Y-12.65 Z-1.32
X-30.584 Y-12.682 Z-1.38
X-30.61 Y-12.725 Z-1.431
X-30.641 Y-12.777 Z-1.469
X-30.675 Y-12.835 Z-1.492
X-30.711 Y-12.896 Z-1.5
G3 X-30.933 Y-13.649 I1.36 J-0.809
G1 Y-16.664
X-30.919 Y-16.928
X-30.876 Y-17.256
X-30.786 Y-17.678
X-30.619 Y-18.234
X-30.352 Y-18.921
X-30.035 Y-19.588
X-29.689 Y-20.239
X-29.321 Y-20.879
X-28.937 Y-21.509
X-28.538 Y-22.13
X-28.127 Y-22.742
X-27.704 Y-23.347
X-27.27 Y-23.943
X-26.825 Y-24.532
X-26.369 Y-25.112
X-25.902 Y-25.683
X-25.425 Y-26.246
X-24.938 Y-26.8
X-24.44 Y-27.345
X-23.933 Y-27.881
X-23.416 Y-28.407
X-22.89 Y-28.924
X-22.354 Y-29.431
X-22.312 Y-29.469
X-22.163 Y-29.574
X-21.994 Y-29.64
X-21.813 Y-29.662
X-19.932
G3 X-19.755 Y-29.089 I-0.011 J0.317
G1 X-19.812 Y-29.047 Z-1.492
X-19.866 Y-29.008 Z-1.469
X-19.915 Y-28.972 Z-1.431
X-19.955 Y-28.942 Z-1.38
X-19.986 Y-28.92 Z-1.32
X-20.005 Y-28.906 Z-1.253
X-20.011 Y-28.901 Z-1.183
G0 Z5.
X-30.549 Y-15.637
Z-0.865
G1 Z-1.183 F1016.
X-30.553 Y-15.644 Z-1.253
X-30.565 Y-15.664 Z-1.32
X-30.584 Y-15.697 Z-1.38
X-30.61 Y-15.74 Z-1.431
X-30.641 Y-15.792 Z-1.469
X-30.675 Y-15.849 Z-1.492
X-30.711 Y-15.91 Z-1.5
G3 X-30.933 Y-16.664 I1.36 J-0.809
G1 Y-19.176
X-30.916 Y-19.511
X-30.879 Y-19.793
X-30.802 Y-20.151
X-30.671 Y-20.59
X-30.442 Y-21.177
X-30.12 Y-21.841
X-29.757 Y-22.483
X-29.367 Y-23.109
X-28.958 Y-23.724
X-28.535 Y-24.328
X-28.098 Y-24.923
X-27.65 Y-25.509
X-27.191 Y-26.086
X-26.722 Y-26.656
X-26.242 Y-27.216
X-25.753 Y-27.768
X-25.253 Y-28.311
X-24.744 Y-28.845
X-24.226 Y-29.37
X-24.142 Y-29.452
X-23.99 Y-29.566
X-23.814 Y-29.638
X-23.625 Y-29.662
X-21.813
G3 X-21.565 Y-29.146 I0. J0.317
G1 X-21.61 Y-29.09
X-30.191 Y-18.386
G3 X-30.711 Y-18.422 I-0.248 J-0.199
X-30.933 Y-19.176 I1.36 J-0.809
G1 Y-21.52
X-30.915 Y-21.861
X-30.882 Y-22.116
X-30.814 Y-22.432
X-30.702 Y-22.808
X-30.512 Y-23.297
X-30.194 Y-23.951
X-29.82 Y-24.587
X-29.413 Y-25.202
X-28.985 Y-25.803
X-28.54 Y-26.392
X-28.083 Y-26.971
X-27.613 Y-27.54
X-27.133 Y-28.1
X-26.643 Y-28.652
X-26.144 Y-29.195
X-25.917 Y-29.433
X-25.761 Y-29.557
X-25.578 Y-29.636
X-25.381 Y-29.662
X-23.625
G3 X-23.378 Y-29.145 I0. J0.317
G1 X-23.422 Y-29.09
X-30.192 Y-20.729
G3 X-30.711 Y-20.767 I-0.247 J-0.2
X-30.933 Y-21.52 I1.36 J-0.809
G1 Y-23.865
X-30.924 Y-24.042
X-30.893 Y-24.278
X-30.831 Y-24.567
X-30.731 Y-24.901
X-30.564 Y-25.329
X-30.296 Y-25.882
X-29.922 Y-26.517
X-29.506 Y-27.127
X-29.064 Y-27.717
X-28.603 Y-28.294
X-28.128 Y-28.859
X-27.642 Y-29.414
X-27.624 Y-29.432
X-27.468 Y-29.557
X-27.285 Y-29.636
X-27.087 Y-29.662
G3 X-26.831 Y-29.173 I-0.011 J0.317
G1 X-26.894 Y-29.076
X-30.348 Y-23.704
G3 X-30.933 Y-23.865 I-0.267 J-0.172
G1 Y-25.875
X-30.92 Y-26.122
X-30.89 Y-26.348
X-30.835 Y-26.609
X-30.742 Y-26.919
X-30.593 Y-27.3
X-30.359 Y-27.783
X-29.989 Y-28.412
X-29.564 Y-29.016
X-29.337 Y-29.307
X-29.26 Y-29.399
X-29.1 Y-29.541
X-28.905 Y-29.631
X-28.693 Y-29.662
G3 X-28.426 Y-29.192 I-0.011 J0.317
G1 X-28.493 Y-29.071
X-30.337 Y-25.732
G3 X-30.933 Y-25.875 I-0.278 J-0.154
G1 Y-27.884
X-30.922 Y-28.102
X-30.893 Y-28.32
X-30.842 Y-28.561
X-30.759 Y-28.838
X-30.661 Y-29.089
X-30.585 Y-29.245
X-30.47 Y-29.417
X-30.312 Y-29.55
X-30.123 Y-29.634
X-29.919 Y-29.662
G3 X-29.643 Y-29.209 I-0.011 J0.317
G1 X-29.71 Y-29.067
X-30.328 Y-27.76
G3 X-30.933 Y-27.884 I-0.287 J-0.136
G1 Y-29.224
X-30.93 Y-29.314
X-30.928 Y-29.388
X-30.917 Y-29.434
X-30.9 Y-29.475
X-30.875 Y-29.517
X-30.84 Y-29.559
X-30.8 Y-29.593
X-30.76 Y-29.62
X-30.718 Y-29.64
X-30.677 Y-29.654
X-30.635 Y-29.661
X-30.593 Y-29.662
X-25.381
G3 X-25.204 Y-29.089 I-0.011 J0.317
G1 X-25.261 Y-29.047 Z-1.492
X-25.315 Y-29.008 Z-1.469
X-25.364 Y-28.972 Z-1.431
X-25.404 Y-28.942 Z-1.38
X-25.435 Y-28.92 Z-1.32
X-25.453 Y-28.906 Z-1.253
X-25.46 Y-28.901 Z-1.183
G0 Z5.
X-13.474 Y29.279
Z-0.865
G1 Z-1.183 F1016.
X-13.481 Y29.283 Z-1.253
X-13.501 Y29.295 Z-1.32
X-13.533 Y29.314 Z-1.38
X-13.576 Y29.34 Z-1.431
X-13.628 Y29.371 Z-1.469
X-13.686 Y29.405 Z-1.492
X-13.747 Y29.441 Z-1.5
G3 X-14.5 Y29.663 I-0.809 J-1.36
G1 X-16.512
X-16.779 Y29.649
X-17.002 Y29.62
X-17.258 Y29.565
X-17.559 Y29.475
X-17.928 Y29.331
X-18.384 Y29.11
X-18.964 Y28.769
X-19.568 Y28.344
X-20.145 Y27.885
X-20.703 Y27.403
X-21.246 Y26.903
X-21.775 Y26.389
X-22.292 Y25.862
X-22.798 Y25.325
X-23.292 Y24.777
X-23.774 Y24.219
X-24.246 Y23.652
X-24.706 Y23.075
X-25.155 Y22.489
X-25.592 Y21.895
X-26.017 Y21.292
X-26.431 Y20.681
X-26.832 Y20.062
X-27.221 Y19.435
X-27.598 Y18.8
X-27.962 Y18.159
X-28.314 Y17.51
X-28.653 Y16.855
X-28.979 Y16.193
X-29.293 Y15.525
X-29.593 Y14.851
X-29.879 Y14.171
X-30.153 Y13.486
X-30.412 Y12.795
X-30.658 Y12.1
X-30.89 Y11.399
X-30.899 Y11.37
X-30.918 Y11.298
X-30.929 Y11.225
X-30.933 Y11.151
Y5.841
G3 X-30.359 Y5.664 I0.317 J0.011
G1 X-30.317 Y5.721 Z-1.492
X-30.278 Y5.775 Z-1.469
X-30.242 Y5.823 Z-1.431
X-30.212 Y5.864 Z-1.38
X-30.19 Y5.894 Z-1.32
X-30.176 Y5.913 Z-1.253
X-30.171 Y5.92 Z-1.183
G0 Z5.
X-15.485 Y29.279
Z-0.865
G1 Z-1.183 F1016.
X-15.492 Y29.283 Z-1.253
X-15.512 Y29.295 Z-1.32
X-15.545 Y29.314 Z-1.38
X-15.588 Y29.34 Z-1.431
X-15.64 Y29.371 Z-1.469
X-15.697 Y29.405 Z-1.492
X-15.758 Y29.441 Z-1.5
G3 X-16.512 Y29.663 I-0.809 J-1.36
G1 X-18.523
X-18.724 Y29.652
X-18.939 Y29.624
X-19.168 Y29.575
X-19.45 Y29.491
X-19.782 Y29.362
X-20.187 Y29.165
X-20.685 Y28.872
X-21.288 Y28.448
X-21.86 Y27.981
X-22.408 Y27.487
X-22.938 Y26.974
X-23.453 Y26.446
X-23.956 Y25.906
X-24.446 Y25.354
X-24.925 Y24.793
X-25.393 Y24.223
X-25.85 Y23.643
X-26.295 Y23.055
X-26.729 Y22.458
X-27.151 Y21.853
X-27.562 Y21.24
X-27.961 Y20.62
X-28.348 Y19.992
X-28.724 Y19.356
X-29.087 Y18.714
X-29.438 Y18.065
X-29.777 Y17.41
X-30.103 Y16.748
X-30.417 Y16.08
X-30.718 Y15.407
X-30.874 Y15.04
X-30.906 Y14.946
X-30.926 Y14.849
X-30.933 Y14.75
Y11.151
G3 X-30.359 Y10.974 I0.317 J0.011
G1 X-30.317 Y11.031 Z-1.492
X-30.278 Y11.085 Z-1.469
X-30.242 Y11.134 Z-1.431
X-30.212 Y11.174 Z-1.38
X-30.19 Y11.205 Z-1.32
X-30.176 Y11.224 Z-1.253
X-30.171 Y11.23 Z-1.183
G0 Z5.
X-17.497 Y29.279
Z-0.865
G1 Z-1.183 F1016.
X-17.504 Y29.283 Z-1.253
X-17.524 Y29.295 Z-1.32
X-17.556 Y29.314 Z-1.38
X-17.6 Y29.34 Z-1.431
X-17.651 Y29.371 Z-1.469
X-17.709 Y29.405 Z-1.492
X-17.77 Y29.441 Z-1.5
G3 X-18.523 Y29.663 I-0.809 J-1.36
G1 X-20.367
X-20.593 Y29.651
X-20.787 Y29.626
X-21.006 Y29.579
X-21.276 Y29.498
X-21.576 Y29.381
X-21.948 Y29.201
X-22.387 Y28.942
X-22.958 Y28.541
X-23.526 Y28.07
X-24.066 Y27.567
X-24.586 Y27.043
X-25.089 Y26.503
X-25.578 Y25.951
X-26.055 Y25.388
X-26.52 Y24.815
X-26.974 Y24.234
X-27.416 Y23.643
X-27.848 Y23.045
X-28.268 Y22.438
X-28.677 Y21.824
X-29.075 Y21.203
X-29.461 Y20.574
X-29.835 Y19.938
X-30.198 Y19.296
X-30.549 Y18.647
X-30.85 Y18.066
X-30.895 Y17.957
X-30.923 Y17.843
X-30.933 Y17.725
Y14.75
G3 X-30.359 Y14.574 I0.317 J0.011
G1 X-30.317 Y14.631 Z-1.492
X-30.278 Y14.685 Z-1.469
X-30.242 Y14.733 Z-1.431
X-30.212 Y14.774 Z-1.38
X-30.19 Y14.804 Z-1.32
X-30.176 Y14.823 Z-1.253
X-30.171 Y14.83 Z-1.183
G0 Z5.
X-19.341 Y29.279
Z-0.865
G1 Z-1.183 F1016.
X-19.348 Y29.283 Z-1.253
X-19.368 Y29.295 Z-1.32
X-19.4 Y29.314 Z-1.38
X-19.444 Y29.34 Z-1.431
X-19.495 Y29.371 Z-1.469
X-19.553 Y29.405 Z-1.492
X-19.614 Y29.441 Z-1.5
G3 X-20.367 Y29.663 I-0.809 J-1.36
G1 X-22.211
X-22.384 Y29.654
X-22.562 Y29.631
X-22.777 Y29.585
X-23.036 Y29.507
X-23.312 Y29.399
X-23.662 Y29.23
X-24.058 Y28.997
X-24.567 Y28.639
X-25.134 Y28.168
X-25.669 Y27.66
X-26.18 Y27.127
X-26.673 Y26.578
X-27.151 Y26.016
X-27.616 Y25.443
X-28.068 Y24.861
X-28.51 Y24.269
X-28.94 Y23.67
X-29.359 Y23.063
X-29.767 Y22.448
X-30.164 Y21.826
X-30.549 Y21.197
X-30.83 Y20.72
X-30.886 Y20.602
X-30.921 Y20.475
X-30.933 Y20.344
Y17.725
G3 X-30.358 Y17.55 I0.317 J0.011
G1 X-22.023 Y29.079
X-21.965 Y29.159
G3 X-22.211 Y29.663 I-0.257 J0.186
G1 X-23.888
X-24.114 Y29.651
X-24.291 Y29.628
X-24.507 Y29.582
X-24.744 Y29.511
X-25.011 Y29.407
X-25.338 Y29.248
X-25.707 Y29.031
X-26.168 Y28.707
X-26.736 Y28.236
X-27.266 Y27.722
X-27.769 Y27.182
X-28.252 Y26.624
X-28.719 Y26.053
X-29.172 Y25.471
X-29.613 Y24.879
X-30.042 Y24.279
X-30.46 Y23.671
X-30.81 Y23.142
X-30.877 Y23.015
X-30.918 Y22.877
X-30.933 Y22.733
Y20.344
G3 X-30.361 Y20.165 I0.317 J0.011
G1 X-30.359 Y20.168
X-23.701 Y29.08
X-23.644 Y29.155
G3 X-23.888 Y29.663 I-0.254 J0.19
G1 X-25.564
X-25.797 Y29.651
X-25.975 Y29.628
X-26.19 Y29.582
X-26.408 Y29.516
X-26.668 Y29.415
X-26.977 Y29.265
X-27.325 Y29.061
X-27.751 Y28.761
X-28.286 Y28.317
X-28.814 Y27.802
X-29.311 Y27.257
X-29.786 Y26.692
X-30.244 Y26.113
X-30.687 Y25.523
X-30.794 Y25.374
X-30.87 Y25.241
X-30.917 Y25.095
X-30.933 Y24.942
G3 X-30.407 Y24.714 I0.317 J0.011
G1 X-30.354 Y24.76
X-25.386 Y29.088
X-25.366 Y29.106
G3 X-25.564 Y29.663 I-0.209 J0.239
G1 X-27.24
X-27.443 Y29.652
X-27.621 Y29.629
X-27.823 Y29.586
X-28.034 Y29.523
X-28.291 Y29.423
X-28.582 Y29.282
X-28.916 Y29.085
X-29.313 Y28.805
X-29.807 Y28.396
X-30.335 Y27.881
X-30.743 Y27.427
X-30.846 Y27.279
X-30.911 Y27.111
X-30.933 Y26.932
G3 X-30.431 Y26.685 I0.317 J0.011
G1 X-30.349 Y26.743
X-27.067 Y29.087
G3 X-27.24 Y29.663 I-0.185 J0.258
G1 X-28.916
X-29.066 Y29.655
X-29.246 Y29.63
X-29.431 Y29.59
X-29.644 Y29.525
X-29.905 Y29.421
X-30.177 Y29.288
X-30.505 Y29.092
X-30.621 Y29.01
X-30.788 Y28.846
X-30.895 Y28.637
X-30.933 Y28.406
G3 X-30.462 Y28.139 I0.317 J0.011
G1 X-30.341 Y28.205
X-28.775 Y29.067
G3 X-28.916 Y29.663 I-0.153 J0.278
G1 X-30.425
X-30.453
X-30.495
X-30.645 Y29.655
X-30.686 Y29.643
X-30.741 Y29.622
X-30.793 Y29.594
X-30.84 Y29.559
X-30.856 Y29.526
X-30.858 Y29.489
X-30.844 Y29.454
X-30.818 Y29.428
X-30.783 Y29.414
X-30.746 Y29.416
X-30.476 Y29.484
X-30.443 Y29.5
X-30.419 Y29.528
X-30.408 Y29.563
X-30.412 Y29.6
X-30.43 Y29.632
X-30.46 Y29.654
X-30.495 Y29.663
X-30.593
X-30.635 Y29.661
X-30.677 Y29.654
X-30.718 Y29.64
X-30.76 Y29.62
X-30.8 Y29.593
X-30.84 Y29.559
X-30.875 Y29.517
X-30.9 Y29.475
X-30.917 Y29.434
X-30.928 Y29.388
X-30.933 Y29.224
Y22.733
G3 X-30.635 Y22.427 I0.317 J0.011
G1 X-30.615 Z-1.499
X-30.562 Y22.44 Z-1.491
X-30.511 Y22.453 Z-1.473
X-30.464 Y22.465 Z-1.446
X-30.428 Y22.496 Z-1.406
X-30.399 Y22.522 Z-1.358
X-30.377 Y22.541 Z-1.303
X-30.364 Y22.553 Z-1.244
X-30.359 Y22.556 Z-1.183
G0 Z5.
X6.228 Y-0.793
Z1.
G3 X3.662 Y0.793 Z0.835 I-1.283 J0.793 F1016.
X6.228 Y-0.793 Z0.669 I1.283 J-0.793
X3.662 Y0.793 Z0.504 I-1.283 J0.793
X6.228 Y-0.793 Z0.338 I1.283 J-0.793
X3.662 Y0.793 Z0.173 I-1.283 J0.793
X6.228 Y-0.793 Z0.007 I1.283 J-0.793
X3.662 Y0.793 Z-0.158 I-1.283 J0.793
X6.228 Y-0.793 Z-0.324 I1.283 J-0.793
X3.662 Y0.793 Z-0.489 I-1.283 J0.793
X6.228 Y-0.793 Z-0.655 I1.283 J-0.793
X3.662 Y0.793 Z-0.82 I-1.283 J0.793
X6.228 Y-0.793 Z-0.985 I1.283 J-0.793
X3.662 Y0.793 Z-1.151 I-1.283 J0.793
X6.228 Y-0.793 Z-1.316 I1.283 J-0.793
X3.662 Y0.793 Z-1.482 I-1.283 J0.793
